;FLAVOR:UltiGCode
;TIME:924
;MATERIAL:901
;MATERIAL2:0
;NOZZLE_DIAMETER:0.4
;MINX:82.06
;MINY:99.152
;MINZ:0.3
;MAXX:120.488
;MAXY:126.127
;MAXZ:5
;Generated with Cura_SteamEngine 4.13.1
M82 ;absolute extrusion mode
G0 F3000 Y50 ;avoid prime blob
G92 E0
G92 E0
G10
;LAYER_COUNT:48
;LAYER:0
M107
G0 F3600 X86.984 Y102.215 Z0.3
;TYPE:SKIRT
G11
G1 F1800 X87.293 Y101.978 E0.04673
G1 X88.155 Y101.368 E0.17345
G1 X88.375 Y101.223 E0.20507
G1 X88.838 Y100.939 E0.27025
G1 X89.425 Y100.634 E0.34963
G1 X90.425 Y100.167 E0.48207
G1 X91.069 Y99.915 E0.56506
G1 X91.381 Y99.813 E0.60445
G1 X92.043 Y99.629 E0.6869
G1 X92.71 Y99.457 E0.76956
G1 X93.21 Y99.352 E0.83086
G1 X93.909 Y99.259 E0.91548
G1 X94.904 Y99.177 E1.03529
G1 X95.595 Y99.152 E1.11826
G1 X96.091 Y99.167 E1.17781
G1 X97.174 Y99.262 E1.30827
G1 X97.401 Y99.289 E1.3357
G1 X97.957 Y99.37 E1.40313
G1 X98.419 Y99.465 E1.45973
G1 X100.444 Y100.006 E1.71125
G1 X101.671 Y100.349 E1.86413
G1 X104.298 Y101.008 E2.18914
G1 X106.969 Y101.597 E2.51736
G1 X109.616 Y102.1 E2.84069
G1 X112.321 Y102.536 E3.16947
G1 X112.832 Y102.609 E3.23142
G1 X113.441 Y102.723 E3.30577
G1 X113.914 Y102.858 E3.36479
G1 X114.675 Y103.128 E3.46169
G1 X115.187 Y103.321 E3.52735
G1 X115.807 Y103.618 E3.60985
G1 X116.255 Y103.882 E3.67225
G1 X116.731 Y104.211 E3.74168
G1 X117.085 Y104.498 E3.79637
G1 X117.716 Y105.036 E3.89588
G1 X118.266 Y105.59 E3.98955
G1 X118.558 Y105.936 E4.04388
G1 X118.872 Y106.379 E4.10904
G1 X118.974 Y106.548 E4.13273
G1 X119.357 Y107.206 E4.22409
G1 X119.605 Y107.649 E4.28502
G1 X119.829 Y108.117 E4.34728
G1 X120.053 Y108.729 E4.42548
G1 X120.195 Y109.285 E4.49434
G1 X120.368 Y110.247 E4.61164
G1 X120.47 Y111.034 E4.70687
G1 X120.488 Y111.672 E4.78346
G1 X120.482 Y111.851 E4.80495
G1 X120.434 Y112.349 E4.86498
G1 X120.325 Y113.02 E4.94656
G1 X120.204 Y113.668 E5.02566
G1 X119.968 Y114.513 E5.13094
G1 X119.789 Y114.98 E5.19096
G1 X119.592 Y115.376 E5.24404
G1 X119.161 Y116.133 E5.34857
G1 X118.66 Y116.926 E5.46113
G1 X118.246 Y117.443 E5.54061
G1 X117.827 Y117.867 E5.61214
G1 X117.42 Y118.221 E5.67687
G1 X116.786 Y118.743 E5.77542
G1 X116.182 Y119.164 E5.86377
G1 X115.826 Y119.378 E5.91361
G1 X115.202 Y119.674 E5.99649
G1 X114.391 Y119.976 E6.10034
G1 X113.916 Y120.143 E6.16076
G1 X113.257 Y120.354 E6.24379
G1 X111.565 Y120.871 E6.4561
G1 X108.971 Y121.744 E6.78454
G1 X106.443 Y122.675 E7.10781
G1 X103.909 Y123.691 E7.43542
G1 X101.411 Y124.793 E7.76306
G1 X100.452 Y125.206 E7.88836
G1 X99.915 Y125.403 E7.957
G1 X99.505 Y125.526 E8.00836
G1 X98.401 Y125.818 E8.1454
G1 X97.834 Y125.936 E8.2149
G1 X97.378 Y125.999 E8.27013
G1 X96.428 Y126.087 E8.38462
G1 X96.03 Y126.112 E8.43248
G1 X95.504 Y126.127 E8.49562
G1 X95.004 Y126.112 E8.55565
G1 X93.76 Y126.004 E8.70549
G1 X93.135 Y125.915 E8.78125
G1 X92.72 Y125.826 E8.83218
G1 X92.016 Y125.643 E8.91947
G1 X91.43 Y125.481 E8.99243
G1 X90.852 Y125.289 E9.06551
G1 X90.458 Y125.127 E9.11663
G1 X89.511 Y124.692 E9.24169
G1 X89.062 Y124.469 E9.30185
G1 X88.543 Y124.169 E9.37378
G1 X88.341 Y124.036 E9.40281
G1 X87.421 Y123.391 E9.53764
G1 X87.238 Y123.255 E9.565
G1 X86.834 Y122.936 E9.62677
G1 X86.483 Y122.624 E9.68312
G1 X85.695 Y121.835 E9.81693
G1 X85.53 Y121.66 E9.8458
G1 X85.159 Y121.241 E9.91295
G1 X84.888 Y120.898 E9.96541
G1 X84.299 Y120.065 E10.08783
G1 X84.157 Y119.85 E10.11875
G1 X83.824 Y119.308 E10.19509
G1 X83.609 Y118.909 E10.24948
G1 X83.117 Y117.857 E10.38884
G1 X82.86 Y117.231 E10.47005
G1 X82.722 Y116.81 E10.52321
G1 X82.533 Y116.136 E10.60721
G1 X82.362 Y115.475 E10.68914
G1 X82.259 Y114.978 E10.75005
G1 X82.16 Y114.206 E10.84345
G1 X82.085 Y113.295 E10.95314
G1 X82.06 Y112.599 E11.03671
G1 X82.075 Y112.089 E11.09794
G1 X82.169 Y111.012 E11.22767
G1 X82.197 Y110.776 E11.25619
G1 X82.279 Y110.22 E11.32363
G1 X82.372 Y109.768 E11.37901
G1 X82.66 Y108.694 E11.51244
G1 X82.726 Y108.474 E11.54
G1 X82.887 Y107.987 E11.60155
G1 X83.059 Y107.553 E11.65757
G1 X83.526 Y106.551 E11.79023
G1 X83.632 Y106.341 E11.81846
G1 X83.916 Y105.815 E11.89019
G1 X84.144 Y105.442 E11.94265
G1 X84.689 Y104.654 E12.05762
G1 X84.875 Y104.403 E12.09511
G1 X85.258 Y103.919 E12.16918
G1 X85.567 Y103.573 E12.22484
G1 X86.485 Y102.655 E12.38063
G1 X86.984 Y102.215 E12.46047
G0 F3600 X87.241 Y102.522
G1 F1800 X87.524 Y102.304 E12.50334
G1 X88.386 Y101.694 E12.63006
G1 X88.584 Y101.564 E12.65848
G1 X89.047 Y101.28 E12.72366
G1 X89.598 Y100.995 E12.7981
G1 X90.594 Y100.53 E12.93
G1 X91.208 Y100.29 E13.00911
G1 X91.489 Y100.198 E13.04459
G1 X92.143 Y100.016 E13.12606
G1 X92.81 Y99.844 E13.20872
G1 X93.54 Y99.705 E13.29789
G1 X94.029 Y99.65 E13.35694
G1 X94.937 Y99.576 E13.46626
G1 X95.606 Y99.552 E13.54659
G1 X96.056 Y99.566 E13.60062
G1 X97.139 Y99.661 E13.73108
G1 X97.343 Y99.685 E13.75573
G1 X97.899 Y99.766 E13.82315
G1 X98.315 Y99.852 E13.87413
G1 X100.336 Y100.391 E14.12512
G1 X101.571 Y100.737 E14.27903
G1 X104.22 Y101.4 E14.60671
G1 X106.874 Y101.986 E14.93287
G1 X109.556 Y102.495 E15.26045
G1 X112.246 Y102.93 E15.58744
G1 X112.766 Y103.003 E15.65046
G1 X113.355 Y103.113 E15.72236
G1 X113.781 Y103.235 E15.77553
G1 X114.534 Y103.502 E15.8714
G1 X115.046 Y103.695 E15.93706
G1 X115.604 Y103.962 E16.0113
G1 X116.052 Y104.226 E16.0737
G1 X116.481 Y104.523 E16.13631
G1 X116.826 Y104.803 E16.18963
G1 X117.457 Y105.341 E16.28913
G1 X117.972 Y105.861 E16.37696
G1 X118.53 Y106.587 E16.48684
G1 X118.628 Y106.75 E16.50966
G1 X119.008 Y107.401 E16.60012
G1 X119.256 Y107.844 E16.66104
G1 X119.534 Y108.456 E16.7417
G1 X119.673 Y108.856 E16.79252
G1 X119.801 Y109.356 E16.85445
G1 X119.973 Y110.312 E16.97101
G1 X120.071 Y111.053 E17.06071
G1 X120.088 Y111.659 E17.13346
G1 X120.039 Y112.286 E17.20893
G1 X119.932 Y112.947 E17.28928
G1 X119.811 Y113.595 E17.36838
G1 X119.586 Y114.393 E17.46788
G1 X119.244 Y115.178 E17.57063
G1 X118.816 Y115.93 E17.67446
G1 X118.343 Y116.683 E17.78117
G1 X117.95 Y117.174 E17.85664
G1 X117.563 Y117.566 E17.92274
G1 X117.161 Y117.916 E17.9867
G1 X116.532 Y118.434 E18.08448
G1 X115.965 Y118.828 E18.16734
G1 X115.623 Y119.032 E18.21512
G1 X115.062 Y119.299 E18.28968
G1 X114.258 Y119.598 E18.39261
G1 X113.68 Y119.8 E18.46609
G1 X113.097 Y119.985 E18.53948
G1 X111.425 Y120.496 E18.74929
G1 X108.842 Y121.366 E19.07636
G1 X106.304 Y122.3 E19.40088
G1 X103.752 Y123.323 E19.73081
G1 X101.253 Y124.426 E20.0586
G1 X100.303 Y124.835 E20.18272
G1 X99.785 Y125.025 E20.24893
G1 X99.403 Y125.139 E20.29677
G1 X98.299 Y125.431 E20.4338
G1 X97.774 Y125.541 E20.49817
G1 X97.341 Y125.6 E20.55061
G1 X96.398 Y125.688 E20.66426
G1 X96.019 Y125.713 E20.70984
G1 X95.493 Y125.728 E20.77299
G1 X95.039 Y125.714 E20.82749
G1 X93.795 Y125.606 E20.97733
G1 X93.211 Y125.522 E21.04814
G1 X92.82 Y125.439 E21.0961
G1 X92.123 Y125.258 E21.18252
G1 X91.537 Y125.096 E21.25547
G1 X91 Y124.917 E21.3234
G1 X90.625 Y124.763 E21.37205
G1 X89.678 Y124.328 E21.4971
G1 X89.119 Y124.046 E21.57223
G1 X88.57 Y123.709 E21.64954
G1 X87.65 Y123.064 E21.78436
G1 X87.486 Y122.941 E21.80896
G1 X87.082 Y122.622 E21.87074
G1 X86.766 Y122.341 E21.92148
G1 X85.978 Y121.552 E22.05529
G1 X85.83 Y121.395 E22.08118
G1 X85.459 Y120.976 E22.14834
G1 X85.215 Y120.667 E22.19559
G1 X84.626 Y119.834 E22.31801
G1 X84.498 Y119.641 E22.3458
G1 X84.165 Y119.099 E22.42214
G1 X83.971 Y118.739 E22.47121
G1 X83.479 Y117.687 E22.61057
G1 X83.238 Y117.101 E22.68661
G1 X83.107 Y116.702 E22.737
G1 X82.921 Y116.036 E22.81998
G1 X82.75 Y115.375 E22.90191
G1 X82.612 Y114.649 E22.99059
G1 X82.552 Y114.1 E23.05687
G1 X82.484 Y113.263 E23.15764
G1 X82.459 Y112.587 E23.23881
G1 X82.474 Y112.124 E23.2944
G1 X82.568 Y111.047 E23.42413
G1 X82.593 Y110.835 E23.44975
G1 X82.675 Y110.279 E23.51719
G1 X82.759 Y109.872 E23.56706
G1 X83.047 Y108.798 E23.70049
G1 X83.106 Y108.6 E23.72529
G1 X83.267 Y108.113 E23.78684
G1 X83.422 Y107.722 E23.83731
G1 X83.889 Y106.72 E23.96997
G1 X83.984 Y106.531 E23.99535
G1 X84.268 Y106.005 E24.06708
G1 X84.474 Y105.669 E24.11438
G1 X85.014 Y104.887 E24.22842
G1 X85.189 Y104.651 E24.26367
G1 X85.572 Y104.167 E24.33774
G1 X85.849 Y103.855 E24.38781
G1 X86.767 Y102.937 E24.5436
G1 X87.241 Y102.522 E24.6192
G0 F3600 X87.498 Y102.828
G1 F1800 X87.756 Y102.631 E24.65815
G1 X88.618 Y102.021 E24.78487
G1 X88.793 Y101.905 E24.81006
G1 X89.256 Y101.621 E24.87524
G1 X89.771 Y101.355 E24.9448
G1 X90.763 Y100.893 E25.07612
G1 X91.347 Y100.665 E25.15135
G1 X91.597 Y100.584 E25.18288
G1 X92.243 Y100.403 E25.26339
G1 X92.91 Y100.231 E25.34605
G1 X93.602 Y100.1 E25.43056
G1 X94.061 Y100.049 E25.48598
G1 X94.969 Y99.975 E25.5953
G1 X95.616 Y99.952 E25.67299
G1 X96.021 Y99.964 E25.72161
G1 X97.104 Y100.059 E25.85207
G1 X97.285 Y100.08 E25.87394
G1 X97.841 Y100.161 E25.94136
G1 X98.211 Y100.238 E25.98671
G1 X100.228 Y100.776 E26.23722
G1 X101.471 Y101.124 E26.39211
G1 X104.109 Y101.785 E26.71846
G1 X106.817 Y102.382 E27.05122
G1 X109.489 Y102.89 E27.3776
G1 X112.171 Y103.323 E27.70361
G1 X112.7 Y103.398 E27.76773
G1 X113.269 Y103.504 E27.83718
G1 X113.647 Y103.612 E27.88436
G1 X114.393 Y103.877 E27.97936
G1 X114.905 Y104.07 E28.04502
G1 X115.401 Y104.307 E28.11098
G1 X115.849 Y104.571 E28.17338
G1 X116.496 Y105.049 E28.26991
G1 X117.197 Y105.645 E28.38033
G1 X117.679 Y106.133 E28.46264
G1 X118.188 Y106.796 E28.56294
G1 X118.283 Y106.952 E28.58486
G1 X118.659 Y107.597 E28.67445
G1 X118.907 Y108.04 E28.73537
G1 X119.162 Y108.605 E28.80976
G1 X119.407 Y109.427 E28.91268
G1 X119.578 Y110.378 E29.02863
G1 X119.671 Y111.072 E29.11266
G1 X119.688 Y111.645 E29.18145
G1 X119.644 Y112.222 E29.25089
G1 X119.539 Y112.873 E29.33002
G1 X119.418 Y113.521 E29.40912
G1 X119.205 Y114.272 E29.5028
G1 X118.896 Y114.981 E29.59561
G1 X118.472 Y115.727 E29.69858
G1 X118.025 Y116.439 E29.79946
G1 X117.654 Y116.905 E29.87094
G1 X117.299 Y117.266 E29.93169
G1 X116.901 Y117.612 E29.99498
G1 X116.278 Y118.126 E30.0919
G1 X115.749 Y118.492 E30.16909
G1 X115.421 Y118.687 E30.21488
G1 X114.922 Y118.924 E30.28117
G1 X114.125 Y119.221 E30.38324
G1 X113.559 Y119.419 E30.45519
G1 X112.981 Y119.602 E30.52794
G1 X111.319 Y120.11 E30.73649
G1 X108.713 Y120.987 E31.06645
G1 X106.153 Y121.93 E31.39383
G1 X103.585 Y122.959 E31.7258
G1 X101.094 Y124.059 E32.05257
G1 X100.153 Y124.464 E32.17551
G1 X99.656 Y124.646 E32.23902
G1 X99.3 Y124.753 E32.28363
G1 X98.196 Y125.045 E32.42066
G1 X97.482 Y125.18 E32.50786
G1 X97.304 Y125.202 E32.52938
G1 X96.369 Y125.289 E32.64207
G1 X96.007 Y125.313 E32.6856
G1 X95.481 Y125.328 E32.74875
G1 X95.073 Y125.315 E32.79773
G1 X93.829 Y125.207 E32.94758
G1 X93.288 Y125.129 E33.01317
G1 X92.921 Y125.052 E33.05817
G1 X92.229 Y124.872 E33.14397
G1 X91.643 Y124.71 E33.21693
G1 X91.147 Y124.545 E33.27965
G1 X90.792 Y124.4 E33.32567
G1 X89.845 Y123.965 E33.45073
G1 X89.308 Y123.693 E33.52296
G1 X88.8 Y123.381 E33.5945
G1 X87.88 Y122.736 E33.72933
G1 X87.734 Y122.627 E33.75119
G1 X87.33 Y122.308 E33.81296
G1 X87.049 Y122.058 E33.8581
G1 X86.261 Y121.269 E33.99191
G1 X86.129 Y121.129 E34.015
G1 X85.758 Y120.71 E34.08216
G1 X85.541 Y120.436 E34.1241
G1 X84.952 Y119.603 E34.24652
G1 X84.838 Y119.431 E34.27129
G1 X84.505 Y118.889 E34.34762
G1 X84.333 Y118.57 E34.39111
G1 X83.841 Y117.518 E34.53048
G1 X83.616 Y116.972 E34.60134
G1 X83.492 Y116.594 E34.64908
G1 X83.308 Y115.935 E34.73118
G1 X83.137 Y115.274 E34.81311
G1 X83.007 Y114.587 E34.89702
G1 X82.951 Y114.067 E34.95978
G1 X82.883 Y113.23 E35.06055
G1 X82.859 Y112.576 E35.13908
G1 X82.872 Y112.159 E35.18915
G1 X82.966 Y111.082 E35.31888
G1 X82.988 Y110.893 E35.34171
G1 X83.07 Y110.337 E35.40915
G1 X83.145 Y109.975 E35.45352
G1 X83.433 Y108.901 E35.58695
G1 X83.486 Y108.726 E35.60889
G1 X83.647 Y108.239 E35.67044
G1 X83.785 Y107.891 E35.71536
G1 X84.252 Y106.889 E35.84802
G1 X84.336 Y106.721 E35.87056
G1 X84.62 Y106.195 E35.94229
G1 X84.803 Y105.897 E35.98426
G1 X85.339 Y105.121 E36.09743
G1 X85.503 Y104.899 E36.13055
G1 X85.886 Y104.415 E36.20462
G1 X86.132 Y104.138 E36.24908
G1 X87.05 Y103.22 E36.40487
G1 X87.498 Y102.828 E36.4763
G10
;MESH:FF_gear_large.stl
G0 F3600 X88.173 Y105.799
G0 X88.412 Y106.708
G0 X89.024 Y107.246
G0 X89.053 Y108.128
G0 X87.953 Y110.338
G0 X87.747 Y111.433
G0 X87.668 Y112.343
G0 X87.832 Y114.497
G0 X88.216 Y115.564
G0 X88.788 Y116.836
G0 X89.598 Y116.963
;TYPE:WALL-INNER
G11
G1 F1800 X89.597 Y116.963 E36.47642
G1 X90.504 Y116.304 E36.61096
G1 X89.598 Y116.963 E36.61106
G0 F3600 X89.386 Y117.51
G1 F1800 X89.229 Y117.118 E36.66174
G1 X89.022 Y116.886 E36.69905
G1 X93.243 Y113.819 E37.32516
G1 X93.298 Y113.95 E37.34221
G1 X93.703 Y114.473 E37.42159
G1 X89.366 Y117.626 E38.06502
G1 X89.386 Y117.51 E38.07915
G0 F3600 X89.362 Y117.852
G1 F1800 X89.325 Y117.862 E38.08375
G1 X89.332 Y117.823 E38.08472
G1 X89.362 Y117.852 E38.08558
G0 F3600 X90.382 Y118.827
G1 F1800 X90.326 Y118.86 E38.09338
G1 X90.326 Y118.767 E38.09714
G1 X90.382 Y118.827 E38.09794
G0 F3600 X91.532 Y119.632
G1 F1800 X91.485 Y119.671 E38.10527
G1 X91.47 Y119.583 E38.10891
G1 X91.532 Y119.632 E38.10958
G0 F3600 X92.809 Y120.221
G1 F1800 X92.77 Y120.268 E38.11691
G1 X92.74 Y120.188 E38.12021
G1 X92.809 Y120.221 E38.12092
G0 F3600 X94.165 Y120.585
G1 F1800 X94.134 Y120.639 E38.1284
G1 X94.087 Y120.557 E38.13236
G1 X94.165 Y120.585 E38.13291
G0 F3600 X95.581 Y120.691
G1 F1800 X95.54 Y120.753 E38.14183
G1 X95.488 Y120.692 E38.14476
G1 X95.581 Y120.691 E38.1474
G0 F3600 X96.973 Y120.567
G1 F1800 X96.956 Y120.635 E38.15581
G1 X96.888 Y120.58 E38.15907
G1 X96.973 Y120.567 E38.16056
G0 F3600 X98.016 Y120.096
G1 F1800 X97.559 Y120.126 E38.21551
G1 X95.954 Y115.189 E38.83847
G1 X96.231 Y115.152 E38.87201
G1 X96.718 Y114.948 E38.93537
G1 X98.389 Y120.091 E39.58429
G1 X98.326 Y120.271 E39.60717
G1 X98.016 Y120.096 E39.63602
G0 F3600 X99.601 Y119.596
G1 F1800 X99.607 Y119.674 E39.64541
G1 X99.523 Y119.644 E39.64854
G1 X99.601 Y119.596 E39.65063
G0 F3600 X100.746 Y118.788
G1 F1800 X100.767 Y118.86 E39.65963
G1 X100.676 Y118.845 E39.66309
G1 X100.746 Y118.788 E39.66477
G0 F3600 X101.769 Y117.861
G1 F1800 X101.676 Y117.861 E39.67593
G1 X101.735 Y117.79 E39.67784
G1 X101.769 Y117.861 E39.67934
G0 F3600 X102.536 Y116.639
G1 F1800 X102.578 Y116.702 E39.68843
G1 X102.506 Y116.695 E39.68965
G1 X102.536 Y116.639 E39.69067
G0 F3600 X103.167 Y115.42
G1 F1800 X103.091 Y115.449 E39.70043
G1 X103.123 Y115.365 E39.70254
G1 X103.167 Y115.42 E39.70323
G0 F3600 X103.549 Y114.053
G1 F1800 X103.464 Y114.1 E39.71489
G1 X103.48 Y114.004 E39.71702
G1 X103.549 Y114.053 E39.71875
G0 F3600 X103.398 Y112.867
G1 F1800 X103.336 Y113.04 E39.74081
G1 X98.098 Y113.04 E40.36937
G1 X98.15 Y112.629 E40.41908
G1 X98.097 Y112.24 E40.46619
G1 X103.325 Y112.24 E41.09355
G1 X103.34 Y112.308 E41.10191
G1 X103.6 Y112.607 E41.14945
G1 X103.67 Y112.639 E41.15869
G1 X103.398 Y112.867 E41.18733
G0 F3600 X103.42 Y112.065
G0 X103.541 Y111.231
G1 F1800 X103.485 Y111.301 E41.19808
G1 X103.469 Y111.209 E41.20015
G1 X103.541 Y111.231 E41.20124
G0 F3600 X103.178 Y109.861
G1 F1800 X103.134 Y109.941 E41.2122
G1 X103.1 Y109.854 E41.21423
G1 X103.178 Y109.861 E41.21561
G0 F3600 X102.581 Y108.579
G1 F1800 X102.55 Y108.667 E41.2268
G1 X102.513 Y108.591 E41.22779
G1 X102.581 Y108.579 E41.22852
G0 F3600 X101.767 Y107.421
G1 F1800 X101.752 Y107.512 E41.23958
G1 X101.707 Y107.443 E41.24038
G1 X101.767 Y107.421 E41.24065
G0 F3600 X100.768 Y106.415
G1 F1800 X100.768 Y106.509 E41.25193
G1 X100.693 Y106.449 E41.25415
G1 X100.768 Y106.415 E41.25571
G0 F3600 X99.607 Y105.602
G1 F1800 X99.625 Y105.699 E41.26755
G1 X99.521 Y105.635 E41.27144
G1 X99.607 Y105.602 E41.27201
G0 F3600 X97.876 Y105.21
G1 F1800 X98.327 Y105.02 E41.33074
