;FLAVOR:UltiGCode
;TIME:4154
;MATERIAL:4881
;MATERIAL2:0
;NOZZLE_DIAMETER:0.4
;MINX:53.3
;MINY:100.8
;MINZ:0.3
;MAXX:169.7
;MAXY:122.2
;MAXZ:12
;Generated with Cura_SteamEngine 4.13.1
M82 ;absolute extrusion mode
G0 F3000 Y50 ;avoid prime blob
G92 E0
G92 E0
G10
;LAYER_COUNT:118
;LAYER:0
M107
G0 F3600 X55.117 Y101.128 Z0.3
;TYPE:SKIRT
G11
G1 F1800 X55.588 Y100.944 E0.06068
G1 X56.082 Y100.838 E0.12131
G1 X56.74 Y100.801 E0.20039
G1 X165.839 Y100.8 E13.29227
G1 X166.537 Y100.81 E13.37604
G1 X167.04 Y100.857 E13.43667
G1 X167.53 Y100.983 E13.49738
G1 X167.994 Y101.185 E13.55811
G1 X168.42 Y101.457 E13.61876
G1 X168.798 Y101.792 E13.67937
G1 X169.118 Y102.183 E13.74
G1 X169.373 Y102.62 E13.80071
G1 X169.556 Y103.091 E13.86135
G1 X169.663 Y103.585 E13.922
G1 X169.699 Y104.24 E14.00072
G1 X169.7 Y118.304 E15.6884
G1 X169.691 Y119.031 E15.77565
G1 X169.645 Y119.534 E15.83626
G1 X169.52 Y120.024 E15.89694
G1 X169.319 Y120.488 E15.95762
G1 X169.048 Y120.915 E16.01831
G1 X168.713 Y121.294 E16.07901
G1 X168.323 Y121.615 E16.13963
G1 X167.887 Y121.871 E16.2003
G1 X167.416 Y122.054 E16.26093
G1 X166.922 Y122.162 E16.32161
G1 X166.26 Y122.199 E16.40118
G1 X57.166 Y122.2 E29.49246
G1 X56.468 Y122.191 E29.57623
G1 X55.964 Y122.144 E29.63697
G1 X55.474 Y122.019 E29.69765
G1 X55.01 Y121.818 E29.75833
G1 X54.584 Y121.547 E29.81892
G1 X54.205 Y121.212 E29.87962
G1 X53.884 Y120.821 E29.94032
G1 X53.629 Y120.385 E30.00094
G1 X53.445 Y119.914 E30.06162
G1 X53.338 Y119.42 E30.12227
G1 X53.301 Y118.744 E30.20351
G1 X53.3 Y104.631 E31.89707
G1 X53.309 Y103.966 E31.97688
G1 X53.356 Y103.462 E32.03762
G1 X53.482 Y102.973 E32.09822
G1 X53.683 Y102.509 E32.1589
G1 X53.954 Y102.082 E32.21959
G1 X54.289 Y101.704 E32.2802
G1 X54.68 Y101.383 E32.3409
G1 X55.117 Y101.128 E32.40162
G10
;MESH:GearCase_V2.stl
G0 F3600 X89.38 Y112.581
G0 X87.679 Y113.29
G0 X89.699 Y114.944
G0 X91.181 Y115.622
G11
G0 X91.2 Y115.524
;TYPE:WALL-INNER
G1 F1800 X92 Y115.603 E32.49808
G1 X92.8 Y115.524 E32.59455
G1 X93.57 Y115.291 E32.69109
G1 X94.279 Y114.911 E32.78762
G1 X94.901 Y114.401 E32.88414
G1 X95.411 Y113.779 E32.98066
G1 X95.791 Y113.07 E33.07719
G1 X96.024 Y112.3 E33.17373
G1 X96.103 Y111.5 E33.2702
G1 X96.024 Y110.7 E33.36666
G1 X95.791 Y109.93 E33.4632
G1 X95.411 Y109.221 E33.55973
G1 X94.901 Y108.599 E33.65625
G1 X94.279 Y108.089 E33.75278
G1 X93.57 Y107.709 E33.84931
G1 X92.8 Y107.476 E33.94584
G1 X92 Y107.397 E34.04231
G1 X91.2 Y107.476 E34.13878
G1 X90.43 Y107.709 E34.23532
G1 X89.721 Y108.089 E34.33185
G1 X89.099 Y108.599 E34.42837
G1 X88.589 Y109.221 E34.52489
G1 X88.209 Y109.93 E34.62142
G1 X87.976 Y110.7 E34.71796
G1 X87.897 Y111.5 E34.81442
G1 X87.976 Y112.3 E34.91089
G1 X88.209 Y113.07 E35.00743
G1 X88.589 Y113.779 E35.10396
G1 X89.099 Y114.401 E35.20048
G1 X89.721 Y114.911 E35.297
G1 X90.43 Y115.291 E35.39353
G1 X91.2 Y115.524 E35.49007
G10
G0 F3600 X91.181 Y115.622
G0 X92 Y115.643
G0 X95.306 Y114.806
G0 X94.003 Y113.503
G0 X134.997 Y113.503
G0 X133.694 Y114.806
G0 X136.181 Y115.622
G11
G0 X136.2 Y115.524
G1 F1800 X137 Y115.603 E35.58654
G1 X137.8 Y115.524 E35.683
G1 X138.57 Y115.291 E35.77954
G1 X139.279 Y114.911 E35.87607
G1 X139.901 Y114.401 E35.97259
G1 X140.411 Y113.779 E36.06912
G1 X140.791 Y113.07 E36.16565
G1 X141.024 Y112.3 E36.26218
G1 X141.103 Y111.5 E36.35865
G1 X141.024 Y110.7 E36.45512
G1 X140.791 Y109.93 E36.55166
G1 X140.411 Y109.221 E36.64818
G1 X139.901 Y108.599 E36.74471
G1 X139.279 Y108.089 E36.84123
G1 X138.57 Y107.709 E36.93776
G1 X137.8 Y107.476 E37.0343
G1 X137 Y107.397 E37.13076
G1 X136.2 Y107.476 E37.22723
G1 X135.43 Y107.709 E37.32377
G1 X134.721 Y108.089 E37.4203
G1 X134.099 Y108.599 E37.51682
G1 X133.589 Y109.221 E37.61334
G1 X133.209 Y109.93 E37.70987
G1 X132.976 Y110.7 E37.80641
G1 X132.897 Y111.5 E37.90288
G1 X132.976 Y112.3 E37.99934
G1 X133.209 Y113.07 E38.09588
G1 X133.589 Y113.779 E38.19241
G1 X134.099 Y114.401 E38.28893
G1 X134.721 Y114.911 E38.38546
G1 X135.43 Y115.291 E38.48199
G1 X136.2 Y115.524 E38.57852
G10
G0 F3600 X136.181 Y115.622
G0 X137 Y115.643
G0 X140.306 Y114.806
G0 X140.306 Y117.81
G0 X165.83 Y118.33
G11
G0 X165.9 Y118.4
G1 F1800 X57.1 Y118.4 E51.63452
G1 X57.1 Y104.6 E53.29052
G1 X165.9 Y104.6 E66.34652
G1 X165.9 Y118.4 E68.00252
G0 F3600 X166.3 Y118.8
;TYPE:WALL-OUTER
G1 F1800 X56.7 Y118.8 E81.15452
G1 X56.7 Y104.2 E82.90652
G1 X166.3 Y104.2 E96.05852
G1 X166.3 Y118.8 E97.81052
G0 F3600 X166.1 Y118.8
G10
G0 X165.83 Y118.33
G0 X136.229 Y117.81
G0 X136.398 Y116.117
G11
G0 X136.278 Y115.13
G1 F1800 X137 Y115.201 E97.89758
G1 X137.722 Y115.13 E97.98464
G1 X138.416 Y114.92 E98.07165
G1 X139.056 Y114.577 E98.15878
G1 X139.617 Y114.117 E98.24584
G1 X140.077 Y113.556 E98.3329
G1 X140.42 Y112.916 E98.42003
G1 X140.63 Y112.222 E98.50704
G1 X140.701 Y111.5 E98.5941
G1 X140.63 Y110.778 E98.68116
G1 X140.42 Y110.084 E98.76817
G1 X140.077 Y109.444 E98.8553
G1 X139.617 Y108.883 E98.94236
G1 X139.056 Y108.423 E99.02942
G1 X138.416 Y108.08 E99.11655
G1 X137.722 Y107.87 E99.20356
G1 X137 Y107.799 E99.29062
G1 X136.278 Y107.87 E99.37767
G1 X135.584 Y108.08 E99.46468
G1 X134.944 Y108.423 E99.55182
G1 X134.383 Y108.883 E99.63888
G1 X133.923 Y109.444 E99.72593
G1 X133.58 Y110.084 E99.81307
G1 X133.37 Y110.778 E99.90008
G1 X133.299 Y111.5 E99.98713
G1 X133.37 Y112.222 E100.07419
G1 X133.58 Y112.916 E100.1612
G1 X133.923 Y113.556 E100.24834
G1 X134.383 Y114.117 E100.33539
G1 X134.944 Y114.577 E100.42245
G1 X135.584 Y114.92 E100.50959
G1 X136.278 Y115.13 E100.59659
G0 F3600 X136.477 Y115.149
G10
G0 X136.428 Y115.646
G0 X133.694 Y114.806
G0 X134.997 Y113.503
G0 X94.003 Y113.503
G0 X95.306 Y114.806
G0 X92.807 Y115.563
G0 X91.229 Y115.626
G11
G0 X91.278 Y115.13
G1 F1800 X92 Y115.201 E100.68365
G1 X92.722 Y115.13 E100.77071
G1 X93.416 Y114.92 E100.85772
G1 X94.056 Y114.577 E100.94485
G1 X94.617 Y114.117 E101.03191
G1 X95.077 Y113.556 E101.11897
G1 X95.42 Y112.916 E101.2061
G1 X95.63 Y112.222 E101.29311
G1 X95.701 Y111.5 E101.38017
G1 X95.63 Y110.778 E101.46723
G1 X95.42 Y110.084 E101.55424
G1 X95.077 Y109.444 E101.64137
G1 X94.617 Y108.883 E101.72843
G1 X94.056 Y108.423 E101.81549
G1 X93.416 Y108.08 E101.90262
G1 X92.722 Y107.87 E101.98963
G1 X92 Y107.799 E102.07669
G1 X91.278 Y107.87 E102.16375
G1 X90.584 Y108.08 E102.25076
G1 X89.944 Y108.423 E102.33789
G1 X89.383 Y108.883 E102.42495
G1 X88.923 Y109.444 E102.51201
G1 X88.58 Y110.084 E102.59914
G1 X88.37 Y110.778 E102.68615
G1 X88.299 Y111.5 E102.77321
G1 X88.37 Y112.222 E102.86026
G1 X88.58 Y112.916 E102.94727
G1 X88.923 Y113.556 E103.03441
G1 X89.383 Y114.117 E103.12147
G1 X89.944 Y114.577 E103.20852
G1 X90.584 Y114.92 E103.29566
G1 X91.278 Y115.13 E103.38267
G0 F3600 X91.477 Y115.149
G0 X91.124 Y115.908
;TYPE:SKIN
G1 F1800 X92 Y115.995 E103.48513
G1 X92.876 Y115.908 E103.5876
G1 X93.72 Y115.653 E103.69023
G1 X94.497 Y115.237 E103.79282
G1 X95.178 Y114.678 E103.89537
G1 X95.737 Y113.997 E103.99793
G1 X96.153 Y113.22 E104.10052
G1 X96.408 Y112.376 E104.20314
G1 X96.495 Y111.5 E104.30561
G1 X96.408 Y110.624 E104.40808
G1 X96.153 Y109.78 E104.51071
G1 X95.737 Y109.003 E104.6133
G1 X95.178 Y108.322 E104.71585
G1 X94.497 Y107.763 E104.81841
G1 X93.72 Y107.347 E104.921
G1 X92.876 Y107.092 E105.02362
G1 X92 Y107.005 E105.12609
G1 X91.124 Y107.092 E105.22856
G1 X90.28 Y107.347 E105.33119
G1 X89.503 Y107.763 E105.43378
G1 X88.822 Y108.322 E105.53633
G1 X88.263 Y109.003 E105.63888
G1 X87.847 Y109.78 E105.74147
G1 X87.592 Y110.624 E105.8441
G1 X87.505 Y111.5 E105.94657
G1 X87.592 Y112.376 E106.04904
G1 X87.847 Y113.22 E106.15166
G1 X88.263 Y113.997 E106.25425
G1 X88.822 Y114.678 E106.35681
G1 X89.503 Y115.237 E106.45936
G1 X90.28 Y115.653 E106.56195
G1 X91.124 Y115.908 E106.66458
G10
G0 F3600 X89.402 Y115.388
G0 X89.402 Y117.81
G0 X57.49 Y118.01
G11
G1 F1800 X57.49 Y104.99 E108.18011
G1 X165.51 Y104.99 E120.75364
G1 X165.51 Y118.01 E122.26916
G1 X57.49 Y118.01 E134.84269
G10
G0 F3600 X132.505 Y117.81
G0 X132.505 Y119.665
G0 X134.644 Y113.07
G0 X133.112 Y114.098
G0 X132.505 Y111.5
G11
G1 F1800 X132.592 Y112.376 E134.94516
G1 X132.847 Y113.22 E135.04779
G1 X133.263 Y113.997 E135.15038
G1 X133.822 Y114.678 E135.25293
G1 X134.503 Y115.237 E135.35548
G1 X135.28 Y115.653 E135.45807
G1 X136.124 Y115.908 E135.5607
G1 X137 Y115.995 E135.66317
G1 X137.876 Y115.908 E135.76564
G1 X138.72 Y115.653 E135.86826
G1 X139.497 Y115.237 E135.97085
G1 X140.178 Y114.678 E136.07341
G1 X140.737 Y113.997 E136.17596
G1 X141.153 Y113.22 E136.27855
G1 X141.408 Y112.376 E136.38118
G1 X141.495 Y111.5 E136.48365
G1 X141.408 Y110.624 E136.58612
G1 X141.153 Y109.78 E136.68874
G1 X140.737 Y109.003 E136.79133
G1 X140.178 Y108.322 E136.89389
G1 X139.497 Y107.763 E136.99644
G1 X138.72 Y107.347 E137.09903
G1 X137.876 Y107.092 E137.20166
G1 X137 Y107.005 E137.30413
G1 X136.124 Y107.092 E137.40659
G1 X135.28 Y107.347 E137.50922
G1 X134.503 Y107.763 E137.61181
G1 X133.822 Y108.322 E137.71436
G1 X133.263 Y109.003 E137.81692
G1 X132.847 Y109.78 E137.91951
G1 X132.592 Y110.624 E138.02214
G1 X132.505 Y111.5 E138.1246
G10
G0 F3600 X133.173 Y109.915
G0 X133.556 Y109.199
G0 X134.071 Y108.571
G0 X134.699 Y108.056
G0 X135.415 Y107.673
G0 X136.193 Y107.437
G0 X137 Y107.357
G0 X137.807 Y107.437
G0 X138.585 Y107.673
G0 X139.301 Y108.056
G0 X141.586 Y110.588
G0 X139.778 Y110.943
G0 X141.586 Y103.335
G0 X141.586 Y105.19
G0 X165.132 Y105.09
G11
G0 X165.132 Y105.17
G1 F1800 X165.329 Y105.366 E138.15695
G0 F3600 X165.329 Y105.932
G1 F1800 X164.567 Y105.17 E138.28239
G0 F3600 X164.001 Y105.17
G1 F1800 X165.329 Y106.498 E138.50099
G0 F3600 X165.329 Y107.063
G1 F1800 X163.435 Y105.17 E138.81269
G0 F3600 X162.87 Y105.17
G1 F1800 X165.329 Y107.629 E139.21748
G0 F3600 X165.329 Y108.195
G1 F1800 X162.304 Y105.17 E139.71544
G0 F3600 X161.738 Y105.17
G1 F1800 X165.329 Y108.76 E140.30649
G0 F3600 X165.329 Y109.326
G1 F1800 X161.172 Y105.17 E140.99071
G0 F3600 X160.607 Y105.17
G1 F1800 X165.329 Y109.892 E141.76802
G0 F3600 X165.329 Y110.457
G1 F1800 X160.041 Y105.17 E142.63841
G0 F3600 X159.475 Y105.17
G1 F1800 X165.329 Y111.023 E143.60199
G0 F3600 X165.329 Y111.589
G1 F1800 X158.91 Y105.17 E144.65865
G0 F3600 X158.344 Y105.17
G1 F1800 X165.329 Y112.154 E145.80839
G0 F3600 X165.329 Y112.72
G1 F1800 X157.778 Y105.17 E147.05132
G0 F3600 X157.213 Y105.17
G1 F1800 X165.329 Y113.286 E148.38733
G0 F3600 X165.329 Y113.851
G1 F1800 X156.647 Y105.17 E149.81643
G0 F3600 X156.081 Y105.17
G1 F1800 X165.329 Y114.417 E151.3387
G0 F3600 X165.329 Y114.983
G1 F1800 X155.516 Y105.17 E152.95406
G0 F3600 X154.95 Y105.17
G1 F1800 X165.329 Y115.549 E154.6626
G0 F3600 X165.329 Y116.114
G1 F1800 X154.384 Y105.17 E156.46422
G0 F3600 X153.819 Y105.17
G1 F1800 X165.329 Y116.68 E158.35893
G0 F3600 X165.329 Y117.246
G1 F1800 X153.253 Y105.17 E160.34681
G0 F3600 X152.687 Y105.17
G1 F1800 X165.329 Y117.811 E162.42779
G0 F3600 X164.781 Y117.829
G1 F1800 X152.122 Y105.17 E164.51164
G0 F3600 X151.556 Y105.17
G1 F1800 X164.215 Y117.829 E166.5955
G0 F3600 X163.649 Y117.829
G1 F1800 X150.99 Y105.17 E168.67935
G0 F3600 X150.424 Y105.17
G1 F1800 X163.084 Y117.829 E170.76329
G0 F3600 X162.518 Y117.829
G1 F1800 X149.859 Y105.17 E172.84714
G0 F3600 X149.293 Y105.17
G1 F1800 X161.952 Y117.829 E174.931
G0 F3600 X161.387 Y117.829
G1 F1800 X148.727 Y105.17 E177.01493
G0 F3600 X148.162 Y105.17
G1 F1800 X160.821 Y117.829 E179.09879
G0 F3600 X160.255 Y117.829
G1 F1800 X147.596 Y105.17 E181.18264
G0 F3600 X147.03 Y105.17
G1 F1800 X159.69 Y117.829 E183.26658
G0 F3600 X159.124 Y117.829
G1 F1800 X146.465 Y105.17 E185.35043
G0 F3600 X145.899 Y105.17
G1 F1800 X158.558 Y117.829 E187.43429
G0 F3600 X157.993 Y117.829
G1 F1800 X145.333 Y105.17 E189.51823
G0 F3600 X144.768 Y105.17
G1 F1800 X157.427 Y117.829 E191.60208
G0 F3600 X156.861 Y117.829
G1 F1800 X144.202 Y105.17 E193.68593
G0 F3600 X143.636 Y105.17
G1 F1800 X156.296 Y117.829 E195.76987
G0 F3600 X155.73 Y117.829
G1 F1800 X143.071 Y105.17 E197.85373
G0 F3600 X142.505 Y105.17
G1 F1800 X155.164 Y117.829 E199.93758
G0 F3600 X154.598 Y117.829
G1 F1800 X141.939 Y105.17 E202.02143
G0 F3600 X141.373 Y105.17
G1 F1800 X154.033 Y117.829 E204.10537
G0 F3600 X153.467 Y117.829
G1 F1800 X140.808 Y105.17 E206.18923
G0 F3600 X140.242 Y105.17
G1 F1800 X152.901 Y117.829 E208.27308
G0 F3600 X152.336 Y117.829
G1 F1800 X139.676 Y105.17 E210.35702
G0 F3600 X139.111 Y105.17
G1 F1800 X151.77 Y117.829 E212.44087
G0 F3600 X151.204 Y117.829
G1 F1800 X138.545 Y105.17 E214.52473
G0 F3600 X137.979 Y105.17
G1 F1800 X150.639 Y117.829 E216.60866
G0 F3600 X150.073 Y117.829
G1 F1800 X137.414 Y105.17 E218.69252
G1 X137.344 Y105.1
G10
G0 F3600 X137.344 Y105.09
G0 X141.168 Y105.19
G0 X140.306 Y108.194
G0 X141.168 Y109.596
G11
G0 X141.238 Y109.559
G1 F1800 X149.507 Y117.829 E220.0538
G0 F3600 X148.942 Y117.829
G1 F1800 X141.533 Y110.421 E221.27334
G0 F3600 X141.634 Y111.087
G1 F1800 X148.376 Y117.829 E222.38317
G0 F3600 X147.81 Y117.829
G1 F1800 X141.657 Y111.676 E223.39605
G0 F3600 X141.606 Y112.19
G1 F1800 X147.245 Y117.829 E224.32431
G0 F3600 X146.679 Y117.829
G1 F1800 X141.509 Y112.659 E225.17536
G0 F3600 X141.378 Y113.093
G1 F1800 X146.113 Y117.829 E225.95489
G0 F3600 X145.548 Y117.829
G1 F1800 X141.21 Y113.492 E226.66891
G0 F3600 X141.013 Y113.86
G1 F1800 X144.982 Y117.829 E227.32226
G0 F3600 X144.416 Y117.829
G1 F1800 X140.795 Y114.208 E227.91833
G0 F3600 X140.54 Y114.518
G1 F1800 X143.85 Y117.829 E228.46329
G0 F3600 X143.285 Y117.829
G1 F1800 X140.281 Y114.825 E228.95779
G0 F3600 X139.971 Y115.08
G1 F1800 X142.719 Y117.829 E229.41023
G0 F3600 X142.153 Y117.829
G1 F1800 X139.66 Y115.336 E229.82062
G0 F3600 X139.303 Y115.544
G1 F1800 X141.588 Y117.829 E230.19676
G0 F3600 X141.022 Y117.829
G1 F1800 X138.935 Y115.742 E230.54031
G0 F3600 X138.527 Y115.899
G1 F1800 X140.456 Y117.829 E230.85794
G0 F3600 X139.891 Y117.829
G1 F1800 X138.092 Y116.03 E231.15408
G0 F3600 X137.611 Y116.115
G1 F1800 X139.325 Y117.829 E231.43623
G0 F3600 X138.759 Y117.829
G1 F1800 X137.097 Y116.167 E231.70982
G0 F3600 X136.489 Y116.125
G1 F1800 X138.194 Y117.829 E231.9904
G0 F3600 X137.628 Y117.829
G1 F1800 X135.796 Y115.997 E232.29198
G1 X135.726 Y115.927
G0 F3600 X134.874 Y115.64
G1 F1800 X137.062 Y117.829 E232.65223
G1 X137.132 Y117.899
G10
G0 F3600 X137.132 Y117.91
G0 X138.899 Y117.81
G0 X138.79 Y115.821
G0 X140.444 Y113.801
G0 X140.827 Y113.085
G0 X141.063 Y112.307
G0 X141.143 Y111.5
G0 X141.063 Y110.693
G0 X140.827 Y109.915
G0 X138.899 Y107.329
G11
G0 X138.938 Y107.26
G1 F1800 X136.848 Y105.17 E232.99628
G0 F3600 X136.282 Y105.17
G1 F1800 X138.076 Y106.964 E233.2916
G0 F3600 X137.411 Y106.864
G1 F1800 X135.717 Y105.17 E233.57045
G0 F3600 X135.151 Y105.17
G1 F1800 X136.822 Y106.841 E233.84552
G0 F3600 X136.308 Y106.892
G1 F1800 X134.585 Y105.17 E234.12907
G0 F3600 X134.02 Y105.17
G1 F1800 X135.839 Y106.989 E234.42851
G0 F3600 X135.404 Y107.12
G1 F1800 X133.454 Y105.17 E234.7495
G0 F3600 X132.888 Y105.17
G1 F1800 X135.006 Y107.287 E235.09808
G0 F3600 X134.638 Y107.485
G1 F1800 X132.323 Y105.17 E235.47916
G0 F3600 X131.757 Y105.17
G1 F1800 X134.29 Y107.702 E235.89604
G0 F3600 X133.979 Y107.958
G1 F1800 X131.191 Y105.17 E236.35499
G0 F3600 X130.625 Y105.17
G1 F1800 X133.673 Y108.217 E236.85665
G0 F3600 X133.419 Y108.528
G1 F1800 X130.06 Y105.17 E237.40951
G0 F3600 X129.494 Y105.17
G1 F1800 X133.163 Y108.839 E238.01348
G0 F3600 X132.955 Y109.196
G1 F1800 X128.928 Y105.17 E238.6763
G0 F3600 X128.363 Y105.17
G1 F1800 X132.757 Y109.564 E239.39962
G0 F3600 X132.6 Y109.972
G1 F1800 X127.797 Y105.17 E240.19018
G0 F3600 X127.231 Y105.17
