;FLAVOR:UltiGCode
;TIME:463
;MATERIAL:764
;MATERIAL2:0
;NOZZLE_DIAMETER:0.4
;MINX:97.509
;MINY:87.983
;MINZ:0.3
;MAXX:121.685
;MAXY:121.689
;MAXZ:4
;Generated with Cura_SteamEngine 4.13.1
M82 ;absolute extrusion mode
G0 F3000 Y50 ;avoid prime blob
G92 E0
G92 E0
G10
;LAYER_COUNT:38
;LAYER:0
M107
G0 F3600 X100.36 Y91.098 Z0.3
;TYPE:SKIRT
G11
G1 F1800 X100.753 Y90.711 E0.06619
G1 X101.243 Y90.285 E0.1441
G1 X101.669 Y89.954 E0.20884
G1 X102.202 Y89.59 E0.28629
G1 X102.73 Y89.274 E0.36013
G1 X103.298 Y88.98 E0.43688
G1 X103.83 Y88.744 E0.50672
G1 X104.516 Y88.492 E0.59442
G1 X105.096 Y88.321 E0.66698
G1 X105.594 Y88.2 E0.72848
G1 X106.257 Y88.085 E0.80923
G1 X106.77 Y88.025 E0.87121
G1 X107.422 Y87.987 E0.94958
G1 X107.643 Y87.983 E0.9761
G1 X108.282 Y88 E1.05281
G1 X108.916 Y88.057 E1.1292
G1 X109.488 Y88.143 E1.19861
G1 X110.06 Y88.261 E1.2687
G1 X110.561 Y88.396 E1.33096
G1 X111.142 Y88.587 E1.40435
G1 X111.613 Y88.767 E1.46486
G1 X112.141 Y89.006 E1.53441
G1 X112.668 Y89.28 E1.60568
G1 X113.255 Y89.637 E1.68813
G1 X113.822 Y90.034 E1.77119
G1 X114.399 Y90.502 E1.86034
G1 X114.913 Y90.984 E1.9449
G1 X115.305 Y91.4 E2.01349
G1 X115.739 Y91.921 E2.09486
G1 X116.04 Y92.331 E2.15589
G1 X116.398 Y92.879 E2.23444
G1 X116.708 Y93.425 E2.30979
G1 X117.009 Y94.045 E2.39249
G1 X117.213 Y94.542 E2.45696
G1 X117.396 Y95.073 E2.52436
G1 X117.597 Y95.784 E2.61302
G1 X117.899 Y97.107 E2.77586
G1 X118.549 Y99.78 E3.10597
G1 X119.258 Y102.383 E3.42971
G1 X120.041 Y104.953 E3.75211
G1 X121.039 Y107.887 E4.124
G1 X121.204 Y108.397 E4.18832
G1 X121.38 Y109.021 E4.26612
G1 X121.546 Y109.799 E4.36158
G1 X121.645 Y110.557 E4.45332
G1 X121.685 Y111.259 E4.53769
G1 X121.683 Y111.819 E4.60489
G1 X121.643 Y112.452 E4.68101
G1 X121.563 Y113.082 E4.75721
G1 X121.475 Y113.579 E4.81778
G1 X121.309 Y114.248 E4.9005
G1 X121.113 Y114.871 E4.97887
G1 X120.891 Y115.448 E5.05306
G1 X120.637 Y116.006 E5.12663
G1 X120.28 Y116.664 E5.21646
G1 X119.953 Y117.185 E5.29027
G1 X119.586 Y117.696 E5.36577
G1 X119.118 Y118.263 E5.45399
G1 X118.726 Y118.681 E5.52276
G1 X118.285 Y119.1 E5.59576
G1 X117.862 Y119.454 E5.66195
G1 X117.39 Y119.81 E5.73289
G1 X116.845 Y120.172 E5.8114
G1 X116.24 Y120.516 E5.89492
G1 X115.699 Y120.782 E5.96726
G1 X115.055 Y121.049 E6.05092
G1 X114.215 Y121.318 E6.15676
G1 X113.972 Y121.381 E6.18689
G1 X113.484 Y121.492 E6.24694
G1 X112.8 Y121.604 E6.33012
G1 X112.135 Y121.668 E6.41028
G1 X111.553 Y121.689 E6.48017
G1 X110.914 Y121.671 E6.55688
G1 X110.29 Y121.615 E6.63206
G1 X109.688 Y121.526 E6.70509
G1 X109.149 Y121.413 E6.77117
G1 X108.519 Y121.241 E6.84954
G1 X107.894 Y121.027 E6.92881
G1 X107.328 Y120.794 E7.00226
G1 X106.803 Y120.541 E7.0722
G1 X106.326 Y120.274 E7.13779
G1 X105.812 Y119.951 E7.21064
G1 X105.301 Y119.584 E7.28614
G1 X104.735 Y119.117 E7.37419
G1 X104.319 Y118.727 E7.44262
G1 X103.893 Y118.278 E7.51689
G1 X103.544 Y117.86 E7.58224
G1 X103.189 Y117.389 E7.65301
G1 X102.828 Y116.844 E7.73146
G1 X102.483 Y116.238 E7.81514
G1 X102.218 Y115.699 E7.88721
G1 X101.951 Y115.055 E7.97087
G1 X101.683 Y114.219 E8.07622
G1 X101.619 Y113.976 E8.10637
G1 X101.291 Y112.539 E8.28325
G1 X100.654 Y109.922 E8.60646
G1 X99.93 Y107.267 E8.93669
G1 X99.143 Y104.687 E9.26038
G1 X98.156 Y101.788 E9.62786
G1 X98.008 Y101.331 E9.68551
G1 X97.847 Y100.78 E9.75439
G1 X97.723 Y100.265 E9.81796
G1 X97.609 Y99.62 E9.89656
G1 X97.535 Y98.948 E9.97769
G1 X97.509 Y98.424 E10.04064
G1 X97.512 Y97.8 E10.11553
G1 X97.553 Y97.185 E10.18949
G1 X97.625 Y96.611 E10.25891
G1 X97.749 Y95.957 E10.33879
G1 X97.917 Y95.303 E10.41981
G1 X98.079 Y94.806 E10.48254
G1 X98.323 Y94.173 E10.56395
G1 X98.626 Y93.524 E10.6499
G1 X98.929 Y92.978 E10.72483
G1 X99.199 Y92.546 E10.78597
G1 X99.494 Y92.122 E10.84795
G1 X99.867 Y91.65 E10.92014
G1 X100.36 Y91.098 E11.00895
G0 F3600 X100.84 Y91.18
G1 F1800 X101.503 Y90.589 E11.11553
G1 X101.91 Y90.273 E11.17737
G1 X102.424 Y89.922 E11.25206
G1 X102.931 Y89.62 E11.32287
G1 X103.478 Y89.338 E11.39672
G1 X103.988 Y89.111 E11.46371
G1 X104.629 Y88.876 E11.54564
G1 X105.209 Y88.705 E11.6182
G1 X105.897 Y88.549 E11.70285
G1 X106.525 Y88.453 E11.77909
G1 X107.129 Y88.399 E11.85186
G1 X107.638 Y88.383 E11.91297
G1 X108.251 Y88.399 E11.98655
G1 X108.861 Y88.453 E12.06004
G1 X109.409 Y88.536 E12.12655
G1 X109.966 Y88.65 E12.19477
G1 X110.436 Y88.776 E12.25317
G1 X111.017 Y88.967 E12.32656
G1 X111.626 Y89.209 E12.4052
G1 X112.17 Y89.467 E12.47744
G1 X112.683 Y89.751 E12.54781
G1 X113.236 Y90.106 E12.62667
G1 X113.743 Y90.476 E12.70198
G1 X114.128 Y90.797 E12.76214
G1 X114.626 Y91.262 E12.8439
G1 X115.001 Y91.659 E12.90943
G1 X115.42 Y92.161 E12.9879
G1 X115.938 Y92.898 E13.096
G1 X116.234 Y93.39 E13.1649
G1 X116.541 Y93.986 E13.24535
G1 X116.766 Y94.499 E13.31257
G1 X116.944 Y94.978 E13.37389
G1 X117.152 Y95.663 E13.45979
G1 X117.207 Y95.873 E13.48584
G1 X117.511 Y97.204 E13.64968
G1 X118.157 Y99.866 E13.97839
G1 X118.869 Y102.477 E14.30315
G1 X119.665 Y105.09 E14.63094
G1 X120.659 Y108.012 E15.00131
G1 X120.82 Y108.51 E15.06411
G1 X120.99 Y109.111 E15.13906
G1 X121.151 Y109.859 E15.23088
G1 X121.247 Y110.6 E15.32054
G1 X121.285 Y111.278 E15.40203
G1 X121.284 Y111.813 E15.46623
G1 X121.244 Y112.422 E15.53947
G1 X121.167 Y113.027 E15.61265
G1 X121.026 Y113.749 E15.70093
G1 X120.86 Y114.357 E15.77656
G1 X120.657 Y114.956 E15.85246
G1 X120.433 Y115.5 E15.92305
G1 X120.192 Y116 E15.98966
G1 X119.941 Y116.452 E16.0517
G1 X119.614 Y116.973 E16.12552
G1 X119.275 Y117.444 E16.19515
G1 X118.823 Y117.993 E16.28049
G1 X118.447 Y118.394 E16.34645
G1 X118.023 Y118.798 E16.41673
G1 X117.621 Y119.135 E16.47968
G1 X117.149 Y119.491 E16.55063
G1 X116.644 Y119.826 E16.62335
G1 X116.06 Y120.16 E16.70408
G1 X115.541 Y120.414 E16.77342
G1 X114.921 Y120.672 E16.854
G1 X114.102 Y120.934 E16.95719
G1 X113.883 Y120.991 E16.98434
G1 X113.395 Y121.102 E17.0444
G1 X112.758 Y121.206 E17.12185
G1 X112.115 Y121.269 E17.19938
G1 X111.559 Y121.289 E17.26614
G1 X110.946 Y121.272 E17.33973
G1 X110.345 Y121.219 E17.41213
G1 X109.763 Y121.133 E17.48273
G1 X109.251 Y121.026 E17.5455
G1 X108.643 Y120.86 E17.62113
G1 X108.042 Y120.656 E17.69729
G1 X107.499 Y120.432 E17.76778
G1 X106.992 Y120.188 E17.8353
G1 X106.539 Y119.935 E17.89756
G1 X106.025 Y119.612 E17.97041
G1 X105.553 Y119.273 E18.04014
G1 X105.005 Y118.821 E18.12538
G1 X104.606 Y118.448 E18.19093
G1 X104.196 Y118.016 E18.2624
G1 X103.863 Y117.619 E18.32458
G1 X103.508 Y117.148 E18.39535
G1 X103.173 Y116.643 E18.46808
G1 X102.839 Y116.058 E18.54891
G1 X102.586 Y115.541 E18.61798
G1 X102.328 Y114.921 E18.69857
G1 X102.066 Y114.106 E18.8013
G1 X102.009 Y113.887 E18.82845
G1 X101.681 Y112.45 E19.00533
G1 X101.032 Y109.784 E19.33459
G1 X100.313 Y107.15 E19.66223
G1 X99.534 Y104.596 E19.98265
G1 X98.536 Y101.663 E20.35443
G1 X98.391 Y101.219 E20.41048
G1 X98.23 Y100.668 E20.47936
G1 X98.113 Y100.178 E20.53982
G1 X98.004 Y99.555 E20.61571
G1 X97.934 Y98.928 E20.69142
G1 X97.908 Y98.404 E20.75438
G1 X97.912 Y97.808 E20.8259
G1 X97.952 Y97.215 E20.89722
G1 X98.021 Y96.666 E20.96362
G1 X98.142 Y96.036 E21.0406
G1 X98.297 Y95.427 E21.11601
G1 X98.459 Y94.93 E21.17874
G1 X98.694 Y94.321 E21.25707
G1 X98.978 Y93.714 E21.33749
G1 X99.268 Y93.19 E21.40936
G1 X99.538 Y92.758 E21.47049
G1 X99.937 Y92.2 E21.55281
G1 X100.322 Y91.733 E21.62544
G1 X100.84 Y91.18 E21.71636
G0 F3600 X101.115 Y91.47
G1 F1800 X101.763 Y90.892 E21.82056
G1 X102.299 Y90.487 E21.90118
G1 X102.819 Y90.147 E21.97573
G1 X103.3 Y89.875 E22.04204
G1 X103.83 Y89.615 E22.11288
G1 X104.518 Y89.335 E22.20202
G1 X104.742 Y89.26 E22.23036
G1 X105.322 Y89.089 E22.30293
G1 X105.961 Y88.944 E22.38155
G1 X106.566 Y88.85 E22.45503
G1 X107.146 Y88.799 E22.52489
G1 X107.632 Y88.783 E22.58325
G1 X108.219 Y88.798 E22.65371
G1 X108.807 Y88.85 E22.72454
G1 X109.33 Y88.928 E22.788
G1 X109.871 Y89.039 E22.85427
G1 X110.311 Y89.156 E22.90891
G1 X110.892 Y89.347 E22.9823
G1 X111.459 Y89.572 E23.0555
G1 X111.98 Y89.819 E23.12469
G1 X112.471 Y90.09 E23.19199
G1 X113.003 Y90.431 E23.26782
G1 X113.492 Y90.788 E23.34047
G1 X114.208 Y91.413 E23.45452
G1 X114.56 Y91.769 E23.5146
G1 X114.975 Y92.246 E23.59047
G1 X115.375 Y92.776 E23.67015
G1 X115.708 Y93.284 E23.74304
G1 X115.992 Y93.782 E23.81183
G1 X116.272 Y94.355 E23.88836
G1 X116.568 Y95.113 E23.98601
G1 X116.768 Y95.776 E24.06911
G1 X116.817 Y95.962 E24.09219
G1 X117.111 Y97.25 E24.25073
G1 X117.778 Y99.994 E24.5896
G1 X118.488 Y102.603 E24.91406
G1 X119.283 Y105.21 E25.24113
G1 X120.279 Y108.137 E25.61214
G1 X120.437 Y108.622 E25.67336
G1 X120.6 Y109.2 E25.74542
G1 X120.755 Y109.918 E25.83357
G1 X120.849 Y110.642 E25.92117
G1 X120.885 Y111.296 E25.99977
G1 X120.884 Y111.806 E26.06097
G1 X120.845 Y112.392 E26.13145
G1 X120.771 Y112.973 E26.20173
G1 X120.64 Y113.648 E26.28424
G1 X120.48 Y114.232 E26.35691
G1 X120.285 Y114.808 E26.42988
G1 X120.071 Y115.33 E26.49758
G1 X119.84 Y115.812 E26.56172
G1 X119.602 Y116.239 E26.62038
G1 X119.275 Y116.76 E26.69419
G1 X118.964 Y117.193 E26.75817
G1 X118.528 Y117.723 E26.84052
G1 X118.169 Y118.107 E26.9036
G1 X117.762 Y118.495 E26.97108
G1 X117.38 Y118.816 E27.03096
G1 X116.908 Y119.172 E27.1019
G1 X116.443 Y119.481 E27.1689
G1 X115.879 Y119.803 E27.24683
G1 X115.384 Y120.046 E27.313
G1 X114.786 Y120.296 E27.39078
G1 X113.989 Y120.551 E27.4912
G1 X113.795 Y120.601 E27.51524
G1 X113.307 Y120.712 E27.57529
G1 X112.716 Y120.808 E27.64714
G1 X112.095 Y120.869 E27.72202
G1 X111.566 Y120.889 E27.78555
G1 X110.977 Y120.873 E27.85625
G1 X110.4 Y120.822 E27.92576
G1 X109.839 Y120.74 E27.9938
G1 X108.955 Y120.536 E28.10267
G1 X108.378 Y120.352 E28.17534
G1 X107.845 Y120.146 E28.24391
G1 X107.335 Y119.913 E28.3112
G1 X106.751 Y119.596 E28.39094
G1 X106.237 Y119.273 E28.46378
G1 X105.805 Y118.962 E28.52766
G1 X105.275 Y118.526 E28.61002
G1 X104.893 Y118.169 E28.67276
G1 X104.499 Y117.755 E28.74134
G1 X104.183 Y117.378 E28.80037
G1 X103.828 Y116.907 E28.87115
G1 X103.519 Y116.442 E28.93814
G1 X103.196 Y115.877 E29.01624
G1 X102.954 Y115.384 E29.08214
G1 X102.704 Y114.786 E29.15992
G1 X102.45 Y113.992 E29.25996
G1 X102.399 Y113.798 E29.28403
G1 X102.071 Y112.361 E29.4609
G1 X101.418 Y109.68 E29.79203
G1 X100.702 Y107.055 E30.11854
G1 X99.907 Y104.448 E30.4456
G1 X98.916 Y101.538 E30.81449
G1 X98.775 Y101.106 E30.86903
G1 X98.614 Y100.555 E30.93791
G1 X98.468 Y99.908 E31.0175
G1 X98.378 Y99.346 E31.0858
G1 X98.334 Y98.909 E31.13851
G1 X98.308 Y98.385 E31.20146
G1 X98.312 Y97.816 E31.26975
G1 X98.351 Y97.246 E31.33831
G1 X98.418 Y96.721 E31.40182
G1 X98.534 Y96.115 E31.47586
G1 X98.678 Y95.551 E31.54571
G1 X98.84 Y95.054 E31.60844
G1 X99.066 Y94.469 E31.68369
G1 X99.33 Y93.903 E31.75864
G1 X99.607 Y93.402 E31.82734
G1 X99.877 Y92.97 E31.88847
G1 X100.249 Y92.451 E31.96509
G1 X100.617 Y92.003 E32.03466
G1 X101.115 Y91.47 E32.1222
G10
;MESH:SensorInsert_62.stl
G0 F3600 X102.617 Y93.554
G0 X103.524 Y94.461
G0 X104.076 Y99.124
G0 X104.6 Y100.276
G0 X107.134 Y102.64
;TYPE:WALL-INNER
G11
G1 F1800 X107.9 Y102.67 E32.21419
G1 X108.656 Y102.57 E32.3057
G1 X109.385 Y102.344 E32.39729
G1 X110.064 Y101.998 E32.48874
G1 X110.679 Y101.544 E32.58047
G1 X111.206 Y100.988 E32.67239
G1 X111.631 Y100.356 E32.76379
G1 X111.945 Y99.659 E32.85552
G1 X112.134 Y98.919 E32.94717
G1 X112.199 Y98.158 E33.03883
G1 X112.128 Y97.397 E33.13054
G1 X111.936 Y96.657 E33.22228
G1 X111.618 Y95.962 E33.314
G1 X111.19 Y95.331 E33.40549
G1 X110.658 Y94.781 E33.49732
G1 X110.041 Y94.327 E33.58924
G1 X109.36 Y93.986 E33.68063
G1 X108.64 Y93.765 E33.77101
G1 X107.87 Y93.67 E33.86411
G1 X107.104 Y93.705 E33.95613
G1 X106.36 Y93.87 E34.04758
G1 X105.653 Y94.156 E34.1391
G1 X105.002 Y94.558 E34.23091
G1 X104.431 Y95.064 E34.32246
G1 X103.954 Y95.661 E34.41416
G1 X103.584 Y96.329 E34.5058
G1 X103.33 Y97.049 E34.59742
G1 X103.205 Y97.792 E34.68783
G1 X103.206 Y98.567 E34.78083
G1 X103.338 Y99.318 E34.87233
G1 X103.595 Y100.038 E34.96407
G1 X103.969 Y100.706 E35.05594
G1 X104.451 Y101.299 E35.14764
G1 X105.025 Y101.801 E35.23915
G1 X105.68 Y102.199 E35.33112
G1 X106.385 Y102.48 E35.42219
G1 X107.134 Y102.64 E35.5141
G0 F3600 X108.24 Y102.937
G1 F1800 X107.685 Y102.969 E35.5731
G1 X107.118 Y102.933 E35.62126
G1 X106.543 Y102.828 E35.67508
G1 X105.966 Y102.647 E35.73935
G1 X105.451 Y102.413 E35.79556
G1 X104.968 Y102.118 E35.84476
G1 X104.507 Y101.757 E35.90265
G1 X104.097 Y101.344 E35.96651
G1 X103.738 Y100.887 E36.02316
G1 X103.44 Y100.39 E36.07653
G1 X103.2 Y99.855 E36.13885
G1 X103.036 Y99.326 E36.19216
G1 X102.926 Y98.716 E36.2461
G1 X102.894 Y98.167 E36.30053
G1 X102.932 Y97.582 E36.36275
G1 X103.032 Y97.032 E36.41025
G1 X103.217 Y96.446 E36.46822
G1 X103.45 Y95.932 E36.52815
G1 X103.749 Y95.441 E36.58315
G1 X104.11 Y94.98 E36.63346
G1 X104.514 Y94.577 E36.69081
G1 X104.968 Y94.221 E36.75195
G1 X105.472 Y93.918 E36.80253
G1 X105.989 Y93.687 E36.85622
G1 X106.544 Y93.514 E36.91791
G1 X107.149 Y93.404 E36.97719
G1 X107.699 Y93.372 E37.02817
G1 X108.28 Y93.41 E37.09153
G1 X108.834 Y93.512 E37.1472
G1 X109.403 Y93.689 E37.19824
G1 X109.939 Y93.932 E37.25441
G1 X110.425 Y94.227 E37.31474
G1 X110.88 Y94.585 E37.36887
G1 X111.284 Y94.989 E37.41748
G1 X111.642 Y95.445 E37.47901
G1 X111.943 Y95.945 E37.53711
G1 X112.184 Y96.484 E37.58805
G1 X112.349 Y97.015 E37.64182
G1 X112.456 Y97.607 E37.7094
G1 X112.491 Y98.176 E37.76837
G1 X112.456 Y98.746 E37.82259
G1 X112.351 Y99.311 E37.88603
G1 X112.168 Y99.895 E37.94658
G1 X111.934 Y100.411 E37.99448
G1 X111.641 Y100.896 E38.04952
G1 X111.279 Y101.357 E38.11177
G1 X110.87 Y101.763 E38.16409
G1 X110.409 Y102.125 E38.21717
G1 X109.903 Y102.429 E38.27995
G1 X109.383 Y102.661 E38.33718
G1 X108.843 Y102.829 E38.387
G1 X108.24 Y102.937 E38.44719
G0 F3600 X108.293 Y103.334
G1 F1800 X107.683 Y103.369 E38.52051
G1 X107.063 Y103.33 E38.59505
G1 X106.448 Y103.218 E38.67007
G1 X105.825 Y103.022 E38.74844
G1 X105.262 Y102.766 E38.82266
G1 X104.74 Y102.448 E38.896
G1 X104.241 Y102.057 E38.97208
G1 X103.796 Y101.609 E39.04785
G1 X103.409 Y101.116 E39.12306
G1 X103.084 Y100.575 E39.19879
G1 X102.826 Y99.999 E39.27453
G1 X102.646 Y99.417 E39.34764
G1 X102.529 Y98.769 E39.42665
G1 X102.494 Y98.165 E39.49925
G1 X102.534 Y97.535 E39.57501
G1 X102.645 Y96.929 E39.64894
G1 X102.84 Y96.309 E39.72693
G1 X103.098 Y95.74 E39.8019
G1 X103.419 Y95.213 E39.87595
G1 X103.81 Y94.714 E39.95202
G1 X104.249 Y94.276 E40.02644
G1 X104.739 Y93.892 E40.10114
G1 X105.284 Y93.564 E40.17747
G1 X105.851 Y93.311 E40.25198
G1 X106.452 Y93.124 E40.32751
G1 X107.094 Y93.007 E40.40582
G1 X107.702 Y92.972 E40.4789
G1 X108.327 Y93.012 E40.55405
G1 X108.935 Y93.124 E40.62824
G1 X109.549 Y93.316 E40.70544
G1 X110.12 Y93.574 E40.78063
G1 X110.656 Y93.899 E40.85585
G1 X111.147 Y94.286 E40.93087
G1 X111.584 Y94.724 E41.00512
G1 X111.969 Y95.214 E41.0799
G1 X112.298 Y95.759 E41.15629
G1 X112.559 Y96.343 E41.23305
G1 X112.739 Y96.924 E41.30604
G1 X112.854 Y97.56 E41.3836
G1 X112.891 Y98.176 E41.45765
G1 X112.853 Y98.798 E41.53243
G1 X112.739 Y99.413 E41.60749
G1 X112.545 Y100.032 E41.68533
G1 X112.287 Y100.6 E41.76019
G1 X111.968 Y101.127 E41.83411
G1 X111.579 Y101.623 E41.90975
G1 X111.135 Y102.064 E41.98485
G1 X110.638 Y102.454 E42.06066
G1 X110.091 Y102.783 E42.13726
G1 X109.524 Y103.036 E42.21176
G1 X108.934 Y103.219 E42.28589
G1 X108.293 Y103.334 E42.36404
G0 F3600 X107.184 Y102.242
G1 F1800 X107.881 Y102.269 E42.44774
G1 X108.57 Y102.178 E42.53114
G1 X109.234 Y101.972 E42.61457
G1 X109.853 Y101.657 E42.69791
G1 X110.413 Y101.243 E42.78148
G1 X110.893 Y100.737 E42.86518
G1 X111.28 Y100.161 E42.94845
