;FLAVOR:UltiGCode
;TIME:220
;MATERIAL:383
;MATERIAL2:0
;NOZZLE_DIAMETER:0.4
;MINX:100.718
;MINY:100.714
;MINZ:0.3
;MAXX:122.286
;MAXY:122.282
;MAXZ:4
;Generated with Cura_SteamEngine 4.13.1
M82 ;absolute extrusion mode
G0 F3000 Y50 ;avoid prime blob
G92 E0
G92 E0
G10
;LAYER_COUNT:38
;LAYER:0
M107
G0 F3600 X103.676 Y104.075 Z0.3
;TYPE:SKIRT
G11
G1 F1800 X104.143 Y103.61 E0.07908
G1 X104.64 Y103.175 E0.15834
G1 X105.097 Y102.818 E0.22793
G1 X105.531 Y102.513 E0.29158
G1 X106.226 Y102.092 E0.38909
G1 X106.872 Y101.757 E0.47642
G1 X107.351 Y101.542 E0.53942
G1 X108.056 Y101.278 E0.62976
G1 X108.802 Y101.055 E0.72319
G1 X109.304 Y100.94 E0.78499
G1 X109.924 Y100.829 E0.86058
G1 X110.504 Y100.759 E0.93068
G1 X111.123 Y100.718 E1.00512
G1 X111.427 Y100.714 E1.04161
G1 X112.189 Y100.736 E1.13308
G1 X112.885 Y100.802 E1.21698
G1 X113.456 Y100.891 E1.28633
G1 X113.992 Y101.006 E1.35211
G1 X114.503 Y101.14 E1.4155
G1 X115.023 Y101.302 E1.48086
G1 X115.691 Y101.561 E1.56684
G1 X116.416 Y101.899 E1.66283
G1 X116.885 Y102.156 E1.727
G1 X117.411 Y102.476 E1.80088
G1 X117.884 Y102.804 E1.86996
G1 X118.382 Y103.193 E1.94579
G1 X118.925 Y103.676 E2.03299
G1 X119.39 Y104.143 E2.11208
G1 X119.825 Y104.64 E2.19134
G1 X120.182 Y105.097 E2.26093
G1 X120.483 Y105.526 E2.32381
G1 X120.904 Y106.219 E2.42112
G1 X121.243 Y106.872 E2.50941
G1 X121.458 Y107.351 E2.57241
G1 X121.722 Y108.056 E2.66275
G1 X121.944 Y108.801 E2.75603
G1 X122.059 Y109.302 E2.81772
G1 X122.171 Y109.924 E2.89356
G1 X122.257 Y110.689 E2.98593
G1 X122.286 Y111.486 E3.08164
G1 X122.265 Y112.171 E3.16388
G1 X122.198 Y112.885 E3.24993
G1 X122.109 Y113.456 E3.31928
G1 X121.994 Y113.992 E3.38506
G1 X121.86 Y114.503 E3.44846
G1 X121.698 Y115.023 E3.51382
G1 X121.439 Y115.691 E3.59979
G1 X121.103 Y116.413 E3.69535
G1 X120.847 Y116.881 E3.75936
G1 X120.522 Y117.415 E3.83438
G1 X120.196 Y117.884 E3.90292
G1 X119.807 Y118.382 E3.97875
G1 X119.324 Y118.925 E4.06596
G1 X118.857 Y119.39 E4.14504
G1 X118.382 Y119.808 E4.22097
G1 X117.893 Y120.19 E4.29543
G1 X117.469 Y120.487 E4.35755
G1 X116.774 Y120.908 E4.45506
G1 X116.128 Y121.243 E4.54238
G1 X115.649 Y121.458 E4.60539
G1 X114.944 Y121.722 E4.69573
G1 X114.199 Y121.944 E4.78901
G1 X113.698 Y122.059 E4.85069
G1 X113.076 Y122.171 E4.92653
G1 X112.496 Y122.241 E4.99664
G1 X111.877 Y122.282 E5.07108
G1 X111.126 Y122.279 E5.1612
G1 X110.406 Y122.231 E5.2478
G1 X109.801 Y122.153 E5.321
G1 X109.288 Y122.058 E5.3836
G1 X109.008 Y121.994 E5.41807
G1 X108.497 Y121.86 E5.48146
G1 X107.977 Y121.698 E5.54682
G1 X107.309 Y121.439 E5.63279
G1 X106.622 Y121.12 E5.72369
G1 X106.127 Y120.851 E5.79129
G1 X105.636 Y120.555 E5.86009
G1 X105.135 Y120.21 E5.93309
G1 X104.616 Y119.804 E6.01216
G1 X104.076 Y119.325 E6.09878
G1 X103.607 Y118.854 E6.17854
G1 X103.171 Y118.356 E6.25797
G1 X102.818 Y117.903 E6.32688
G1 X102.513 Y117.469 E6.39054
G1 X102.092 Y116.776 E6.48784
G1 X101.754 Y116.123 E6.57608
G1 X101.542 Y115.649 E6.63839
G1 X101.271 Y114.921 E6.7316
G1 X101.056 Y114.199 E6.822
G1 X100.941 Y113.698 E6.88369
G1 X100.829 Y113.076 E6.95953
G1 X100.758 Y112.498 E7.02941
G1 X100.718 Y111.862 E7.10588
G1 X100.721 Y111.126 E7.1942
G1 X100.764 Y110.456 E7.27476
G1 X100.833 Y109.89 E7.34319
G1 X100.942 Y109.288 E7.4166
G1 X101.006 Y109.008 E7.45107
G1 X101.14 Y108.497 E7.51446
G1 X101.302 Y107.977 E7.57982
G1 X101.561 Y107.309 E7.66579
G1 X101.88 Y106.621 E7.7568
G1 X102.147 Y106.13 E7.82387
G1 X102.478 Y105.585 E7.90038
G1 X102.804 Y105.116 E7.96892
G1 X103.193 Y104.618 E8.04475
G1 X103.676 Y104.075 E8.13196
G0 F3600 X103.971 Y104.345
G1 F1800 X104.421 Y103.898 E8.20807
G1 X104.899 Y103.479 E8.28435
G1 X105.338 Y103.137 E8.35113
G1 X105.758 Y102.842 E8.41272
G1 X106.428 Y102.437 E8.50667
G1 X107.051 Y102.115 E8.59082
G1 X107.509 Y101.909 E8.65109
G1 X108.192 Y101.654 E8.73857
G1 X108.891 Y101.445 E8.82612
G1 X109.393 Y101.33 E8.88792
G1 X109.989 Y101.223 E8.96059
G1 X110.546 Y101.156 E9.02791
G1 X111.142 Y101.118 E9.09957
G1 X111.421 Y101.114 E9.13306
G1 X112.156 Y101.135 E9.22129
G1 X112.828 Y101.198 E9.30229
G1 X113.378 Y101.283 E9.36907
G1 X113.89 Y101.393 E9.43191
G1 X114.401 Y101.527 E9.49531
G1 X114.897 Y101.682 E9.55766
G1 X115.542 Y101.932 E9.64067
G1 X116.223 Y102.249 E9.73081
G1 X116.692 Y102.506 E9.79499
G1 X117.199 Y102.815 E9.86624
G1 X117.651 Y103.129 E9.93228
G1 X118.132 Y103.505 E10.00555
G1 X118.655 Y103.971 E10.0896
G1 X119.102 Y104.421 E10.16572
G1 X119.521 Y104.899 E10.242
G1 X119.863 Y105.338 E10.30877
G1 X120.154 Y105.753 E10.3696
G1 X120.559 Y106.421 E10.46334
G1 X120.885 Y107.051 E10.54846
G1 X121.091 Y107.509 E10.60872
G1 X121.346 Y108.192 E10.69621
G1 X121.554 Y108.891 E10.78373
G1 X121.669 Y109.392 E10.84541
G1 X121.777 Y109.989 E10.91821
G1 X121.858 Y110.709 E11.00516
G1 X121.886 Y111.479 E11.09762
G1 X121.867 Y112.139 E11.17685
G1 X121.802 Y112.828 E11.2599
G1 X121.717 Y113.378 E11.32668
G1 X121.607 Y113.89 E11.38952
G1 X121.473 Y114.401 E11.45292
G1 X121.318 Y114.897 E11.51528
G1 X121.068 Y115.542 E11.59829
G1 X120.752 Y116.221 E11.68816
G1 X120.496 Y116.689 E11.75217
G1 X120.183 Y117.202 E11.82428
G1 X119.871 Y117.651 E11.8899
G1 X119.495 Y118.132 E11.96316
G1 X119.029 Y118.655 E12.04722
G1 X118.579 Y119.102 E12.12333
G1 X118.122 Y119.505 E12.19645
G1 X117.652 Y119.87 E12.26786
G1 X117.242 Y120.158 E12.32798
G1 X116.572 Y120.563 E12.42193
G1 X115.949 Y120.885 E12.50609
G1 X115.491 Y121.091 E12.56635
G1 X114.808 Y121.346 E12.65383
G1 X114.109 Y121.554 E12.74135
G1 X113.608 Y121.669 E12.80303
G1 X113.011 Y121.777 E12.87584
G1 X112.454 Y121.844 E12.94316
G1 X111.858 Y121.882 E13.01482
G1 X111.132 Y121.879 E13.10194
G1 X110.439 Y121.832 E13.18529
G1 X109.858 Y121.757 E13.25559
G1 X109.366 Y121.666 E13.31563
G1 X109.11 Y121.607 E13.34716
G1 X108.599 Y121.473 E13.41055
G1 X108.103 Y121.318 E13.47291
G1 X107.458 Y121.068 E13.55592
G1 X106.813 Y120.769 E13.64123
G1 X106.318 Y120.5 E13.70884
G1 X105.848 Y120.216 E13.77474
G1 X105.366 Y119.884 E13.84497
G1 X104.866 Y119.492 E13.92121
G1 X104.345 Y119.029 E14.00485
G1 X103.895 Y118.576 E14.08147
G1 X103.476 Y118.097 E14.15784
G1 X103.137 Y117.662 E14.22402
G1 X102.842 Y117.242 E14.28561
G1 X102.438 Y116.574 E14.37929
G1 X102.112 Y115.944 E14.46441
G1 X101.809 Y115.236 E14.55683
G1 X101.588 Y114.609 E14.6366
G1 X101.446 Y114.109 E14.69897
G1 X101.331 Y113.608 E14.76066
G1 X101.223 Y113.011 E14.83346
G1 X101.156 Y112.455 E14.90066
G1 X101.117 Y111.844 E14.97413
G1 X101.121 Y111.132 E15.05957
G1 X101.162 Y110.487 E15.13713
G1 X101.229 Y109.944 E15.20278
G1 X101.334 Y109.366 E15.27328
G1 X101.393 Y109.11 E15.30481
G1 X101.527 Y108.599 E15.3682
G1 X101.682 Y108.103 E15.43056
G1 X101.932 Y107.458 E15.51357
G1 X102.232 Y106.812 E15.59904
G1 X102.499 Y106.321 E15.66611
G1 X102.817 Y105.798 E15.73956
G1 X103.129 Y105.349 E15.80517
G1 X103.505 Y104.868 E15.87843
G1 X103.971 Y104.345 E15.96249
G0 F3600 X104.266 Y104.615
G1 F1800 X104.699 Y104.186 E16.03563
G1 X105.159 Y103.783 E16.10902
G1 X105.58 Y103.456 E16.17299
G1 X106.235 Y103.013 E16.26788
G1 X106.86 Y102.657 E16.35419
G1 X107.436 Y102.377 E16.43105
G1 X108.328 Y102.031 E16.54586
G1 X108.981 Y101.835 E16.62767
G1 X109.483 Y101.72 E16.68947
G1 X110.054 Y101.618 E16.75908
G1 X110.589 Y101.554 E16.82373
G1 X111.161 Y101.518 E16.89251
G1 X111.415 Y101.513 E16.923
G1 X112.124 Y101.533 E17.00811
G1 X112.771 Y101.593 E17.08608
G1 X113.3 Y101.675 E17.15032
G1 X113.789 Y101.78 E17.21034
G1 X114.3 Y101.914 E17.27373
G1 X115.001 Y102.146 E17.36234
G1 X115.541 Y102.366 E17.43231
G1 X116.031 Y102.6 E17.49747
G1 X116.5 Y102.857 E17.56165
G1 X116.986 Y103.154 E17.63
G1 X117.418 Y103.454 E17.69311
G1 X117.881 Y103.818 E17.76378
G1 X118.385 Y104.266 E17.8447
G1 X118.814 Y104.699 E17.91785
G1 X119.217 Y105.159 E17.99123
G1 X119.544 Y105.58 E18.0552
G1 X119.979 Y106.222 E18.14826
G1 X120.343 Y106.86 E18.23641
G1 X120.623 Y107.436 E18.31326
G1 X120.969 Y108.328 E18.42807
G1 X121.165 Y108.98 E18.50977
G1 X121.28 Y109.481 E18.57145
G1 X121.382 Y110.054 E18.64129
G1 X121.458 Y110.729 E18.72281
G1 X121.486 Y111.473 E18.81215
G1 X121.468 Y112.107 E18.88826
G1 X121.407 Y112.771 E18.96828
G1 X121.325 Y113.3 E19.03251
G1 X121.22 Y113.789 E19.09253
G1 X121.086 Y114.3 E19.15592
G1 X120.854 Y115.001 E19.24453
G1 X120.634 Y115.541 E19.3145
G1 X120.401 Y116.029 E19.3794
G1 X120.145 Y116.497 E19.44341
G1 X119.844 Y116.989 E19.51262
G1 X119.546 Y117.418 E19.5753
G1 X119.182 Y117.881 E19.64598
G1 X118.734 Y118.385 E19.7269
G1 X118.301 Y118.814 E19.80004
G1 X117.861 Y119.202 E19.87044
G1 X117.411 Y119.551 E19.93877
G1 X116.765 Y119.987 E20.0323
G1 X116.14 Y120.343 E20.11861
G1 X115.564 Y120.623 E20.19547
G1 X114.672 Y120.969 E20.31028
G1 X114.02 Y121.165 E20.39197
G1 X113.519 Y121.28 E20.45366
G1 X112.946 Y121.382 E20.5235
G1 X112.411 Y121.446 E20.58816
G1 X111.839 Y121.482 E20.65693
G1 X111.138 Y121.48 E20.74105
G1 X110.471 Y121.434 E20.82128
G1 X109.915 Y121.362 E20.88856
G1 X109.211 Y121.22 E20.97474
G1 X108.7 Y121.086 E21.03813
G1 X107.999 Y120.854 E21.12674
G1 X107.47 Y120.639 E21.19526
G1 X107.004 Y120.418 E21.25715
G1 X106.509 Y120.149 E21.32476
G1 X106.06 Y119.877 E21.38775
G1 X105.598 Y119.557 E21.45519
G1 X105.116 Y119.18 E21.52863
G1 X104.615 Y118.734 E21.60912
G1 X104.183 Y118.298 E21.68277
G1 X103.78 Y117.837 E21.75625
G1 X103.456 Y117.42 E21.81962
G1 X103.015 Y116.768 E21.91407
G1 X102.654 Y116.135 E22.00152
G1 X102.377 Y115.564 E22.07767
G1 X102.185 Y115.101 E22.13782
G1 X101.97 Y114.49 E22.21555
G1 X101.835 Y114.02 E22.27423
G1 X101.72 Y113.519 E22.33591
G1 X101.618 Y112.946 E22.40575
G1 X101.554 Y112.413 E22.47017
G1 X101.517 Y111.827 E22.54063
G1 X101.52 Y111.139 E22.62319
G1 X101.561 Y110.518 E22.69788
G1 X101.625 Y109.998 E22.76075
G1 X101.726 Y109.444 E22.82832
G1 X101.78 Y109.211 E22.85702
G1 X101.914 Y108.7 E22.92042
G1 X102.146 Y107.999 E23.00902
G1 X102.361 Y107.47 E23.07755
G1 X102.583 Y107.003 E23.1396
G1 X102.85 Y106.512 E23.20667
G1 X103.156 Y106.011 E23.27711
G1 X103.454 Y105.582 E23.33979
G1 X103.818 Y105.119 E23.41047
G1 X104.266 Y104.615 E23.49139
G0 F3600 X104.722 Y104.72
G1 F1800 X105.138 Y104.328 E23.55998
G1 X105.582 Y103.957 E23.62941
G1 X106.212 Y103.501 E23.72274
G1 X106.832 Y103.127 E23.80962
G1 X107.409 Y102.83 E23.8875
G1 X108.029 Y102.564 E23.96846
G1 X108.608 Y102.358 E24.0422
G1 X109.07 Y102.225 E24.0999
G1 X109.572 Y102.11 E24.1617
G1 X110.12 Y102.012 E24.2285
G1 X110.631 Y101.952 E24.29024
G1 X111.18 Y101.917 E24.35625
G1 X111.408 Y101.913 E24.38362
G1 X112.091 Y101.932 E24.46561
G1 X112.715 Y101.989 E24.5408
G1 X113.221 Y102.067 E24.60224
G1 X113.687 Y102.167 E24.65943
G1 X114.198 Y102.301 E24.72283
G1 X114.852 Y102.517 E24.80547
G1 X115.377 Y102.731 E24.87351
G1 X115.839 Y102.951 E24.93491
G1 X116.308 Y103.208 E24.99909
G1 X116.774 Y103.493 E25.06464
G1 X117.185 Y103.779 E25.12472
G1 X117.631 Y104.13 E25.19283
G1 X118.116 Y104.562 E25.27077
G1 X118.526 Y104.977 E25.34077
G1 X118.912 Y105.419 E25.41119
G1 X119.225 Y105.822 E25.47243
G1 X119.634 Y106.424 E25.55976
G1 X119.985 Y107.039 E25.64473
G1 X120.256 Y107.594 E25.71885
G1 X120.593 Y108.464 E25.83081
G1 X120.775 Y109.07 E25.90674
G1 X120.89 Y109.571 E25.96842
G1 X120.988 Y110.12 E26.03534
G1 X121.059 Y110.749 E26.1113
G1 X121.087 Y111.467 E26.19753
G1 X121.069 Y112.074 E26.2704
G1 X121.011 Y112.715 E26.34763
G1 X120.933 Y113.221 E26.40907
G1 X120.833 Y113.687 E26.46626
G1 X120.699 Y114.198 E26.52966
G1 X120.483 Y114.852 E26.61231
G1 X120.269 Y115.377 E26.68034
G1 X120.05 Y115.837 E26.74148
G1 X119.794 Y116.305 E26.80549
G1 X119.506 Y116.777 E26.87184
G1 X119.104 Y117.339 E26.95476
G1 X118.72 Y117.807 E27.0274
G1 X118.278 Y118.28 E27.10509
G1 X117.873 Y118.663 E27.17198
G1 X117.418 Y119.044 E27.24319
G1 X116.788 Y119.499 E27.33645
G1 X116.168 Y119.873 E27.42334
G1 X115.591 Y120.17 E27.50121
G1 X114.971 Y120.436 E27.58217
G1 X114.387 Y120.643 E27.65652
G1 X113.93 Y120.775 E27.7136
G1 X113.429 Y120.89 E27.77529
G1 X112.88 Y120.988 E27.84221
G1 X112.369 Y121.048 E27.90395
G1 X111.82 Y121.083 E27.96996
G1 X111.145 Y121.08 E28.05096
G1 X110.504 Y121.035 E28.12807
G1 X109.971 Y120.966 E28.19257
G1 X109.313 Y120.833 E28.27312
G1 X108.802 Y120.699 E28.33652
G1 X108.148 Y120.483 E28.41917
G1 X107.633 Y120.273 E28.48591
G1 X107.195 Y120.066 E28.54404
G1 X106.7 Y119.797 E28.61164
G1 X106.271 Y119.537 E28.67184
G1 X105.829 Y119.231 E28.73635
G1 X105.367 Y118.868 E28.80686
G1 X104.885 Y118.438 E28.88437
G1 X104.471 Y118.02 E28.95497
G1 X104.085 Y117.578 E29.02539
G1 X103.775 Y117.178 E29.08611
G1 X103.36 Y116.566 E29.17485
G1 X103.012 Y115.956 E29.25912
G1 X102.744 Y115.406 E29.33254
G1 X102.4 Y114.515 E29.44715
G1 X102.225 Y113.93 E29.52042
G1 X102.11 Y113.429 E29.58211
G1 X102.012 Y112.88 E29.64903
G1 X101.952 Y112.37 E29.71065
G1 X101.917 Y111.809 E29.7781
G1 X101.92 Y111.145 E29.85778
G1 X101.96 Y110.549 E29.92946
G1 X102.022 Y110.051 E29.98969
G1 X102.118 Y109.523 E30.05408
G1 X102.167 Y109.313 E30.07996
G1 X102.301 Y108.802 E30.14335
G1 X102.517 Y108.148 E30.226
G1 X102.727 Y107.633 E30.29274
G1 X102.934 Y107.194 E30.35099
G1 X103.201 Y106.703 E30.41805
G1 X103.494 Y106.223 E30.48554
G1 X103.896 Y105.661 E30.56846
G1 X104.28 Y105.193 E30.6411
G1 X104.722 Y104.72 E30.71879
G0 F3600 X104.999 Y105.008
G1 F1800 X105.398 Y104.632 E30.78457
G1 X105.823 Y104.275 E30.85118
G1 X106.439 Y103.831 E30.9423
G1 X107.034 Y103.473 E31.02563
G1 X107.588 Y103.188 E31.10039
G1 X108.165 Y102.94 E31.17575
G1 X108.728 Y102.74 E31.24745
G1 X109.159 Y102.615 E31.3013
G1 X109.661 Y102.5 E31.3631
G1 X110.185 Y102.407 E31.42696
G1 X110.782 Y102.34 E31.49905
G1 X111.402 Y102.313 E31.57353
G1 X112.059 Y102.331 E31.65239
G1 X112.658 Y102.385 E31.72457
G1 X113.399 Y102.511 E31.81476
G1 X113.586 Y102.554 E31.83779
G1 X114.097 Y102.688 E31.90118
G1 X114.703 Y102.888 E31.97776
G1 X115.213 Y103.096 E32.04385
G1 X115.647 Y103.302 E32.1015
G1 X116.116 Y103.559 E32.16568
G1 X116.561 Y103.832 E32.22833
G1 X117.089 Y104.208 E32.30611
G1 X117.537 Y104.575 E32.37561
G1 X117.992 Y104.999 E32.45024
G1 X118.368 Y105.398 E32.51603
G1 X118.725 Y105.823 E32.58263
G1 X119.165 Y106.433 E32.67289
G1 X119.525 Y107.029 E32.75644
G1 X119.812 Y107.588 E32.83185
G1 X120.06 Y108.165 E32.90721
G1 X120.262 Y108.732 E32.97944
G1 X120.385 Y109.159 E33.03276
G1 X120.5 Y109.66 E33.09445
G1 X120.593 Y110.185 E33.15843
G1 X120.659 Y110.769 E33.22896
G1 X120.687 Y111.46 E33.31194
G1 X120.671 Y112.042 E33.38181
G1 X120.615 Y112.658 E33.45603
G1 X120.489 Y113.399 E33.54623
G1 X120.446 Y113.586 E33.56926
G1 X120.312 Y114.097 E33.63265
G1 X120.112 Y114.703 E33.70923
G1 X119.904 Y115.213 E33.77532
G1 X119.699 Y115.645 E33.8327
G1 X119.443 Y116.113 E33.89672
G1 X119.167 Y116.564 E33.96017
G1 X118.792 Y117.089 E34.03759
G1 X118.425 Y117.537 E34.10708
G1 X118.001 Y117.992 E34.18171
G1 X117.612 Y118.36 E34.24597
G1 X117.178 Y118.725 E34.31402
G1 X116.561 Y119.169 E34.40524
G1 X115.966 Y119.527 E34.48857
G1 X115.412 Y119.812 E34.56333
G1 X114.835 Y120.06 E34.63869
G1 X114.268 Y120.262 E34.71092
G1 X113.841 Y120.385 E34.76425
G1 X113.34 Y120.5 E34.82593
G1 X112.815 Y120.593 E34.88991
G1 X112.218 Y120.66 E34.962
G1 X111.598 Y120.687 E35.03647
G1 X110.941 Y120.669 E35.11534
G1 X110.342 Y120.615 E35.18751
G1 X109.601 Y120.489 E35.27771
G1 X109.414 Y120.446 E35.30073
G1 X108.903 Y120.312 E35.36413
G1 X108.297 Y120.112 E35.44071
G1 X107.795 Y119.908 E35.50573
G1 X107.386 Y119.715 E35.56
G1 X106.891 Y119.446 E35.6276
G1 X106.325 Y119.093 E35.70765
G1 X105.91 Y118.791 E35.76924
G1 X105.462 Y118.424 E35.83874
