;FLAVOR:UltiGCode
;TIME:510
;MATERIAL:269
;MATERIAL2:0
;NOZZLE_DIAMETER:0.4
;MINX:102.266
;MINY:102.263
;MINZ:0.3
;MAXX:120.734
;MAXY:120.738
;MAXZ:9.7
;Generated with Cura_SteamEngine 4.8.0
M82 ;absolute extrusion mode
G0 F3000 Y50 ;avoid prime blob
G92 E0
G92 E0
G10
;LAYER_COUNT:96
;LAYER:0
M107
G0 F3600 X104.883 Y105.054 Z0.3
;TYPE:SKIRT
G11
G1 F1800 X105.291 Y104.66 E0.06806
G1 X105.828 Y104.209 E0.15221
G1 X106.296 Y103.868 E0.2217
G1 X106.879 Y103.503 E0.30424
G1 X107.344 Y103.25 E0.36777
G1 X107.963 Y102.967 E0.44944
G1 X108.474 Y102.772 E0.51507
G1 X109.118 Y102.576 E0.59585
G1 X109.649 Y102.449 E0.66137
G1 X110.337 Y102.337 E0.74502
G1 X110.912 Y102.281 E0.81434
G1 X111.547 Y102.263 E0.89057
G1 X112.116 Y102.282 E0.95889
G1 X112.804 Y102.356 E1.04193
G1 X113.311 Y102.441 E1.10362
G1 X114.031 Y102.617 E1.19256
G1 X114.56 Y102.784 E1.25913
G1 X115.139 Y103.01 E1.33371
G1 X115.637 Y103.24 E1.39954
G1 X116.263 Y103.586 E1.48537
G1 X116.733 Y103.887 E1.55235
G1 X117.24 Y104.264 E1.62816
G1 X117.876 Y104.816 E1.72922
G1 X118.453 Y105.416 E1.82911
G1 X118.975 Y106.076 E1.93009
G1 X119.289 Y106.534 E1.99672
G1 X119.624 Y107.104 E2.07606
G1 X119.896 Y107.646 E2.14883
G1 X120.134 Y108.218 E2.22318
G1 X120.334 Y108.8 E2.29703
G1 X120.498 Y109.412 E2.37306
G1 X120.611 Y109.972 E2.44161
G1 X120.696 Y110.628 E2.52099
G1 X120.734 Y111.211 E2.5911
G1 X120.73 Y111.855 E2.66838
G1 X120.695 Y112.388 E2.73248
G1 X120.592 Y113.124 E2.82166
G1 X120.49 Y113.629 E2.88348
G1 X120.302 Y114.3 E2.9671
G1 X120.128 Y114.803 E3.03097
G1 X119.852 Y115.444 E3.11472
G1 X119.614 Y115.917 E3.17826
G1 X119.24 Y116.539 E3.26535
G1 X118.934 Y116.982 E3.32996
G1 X118.504 Y117.519 E3.41252
G1 X118.136 Y117.926 E3.47836
G1 X117.685 Y118.361 E3.55355
G1 X117.222 Y118.752 E3.62627
G1 X116.676 Y119.15 E3.70735
G1 X116.198 Y119.454 E3.77533
G1 X115.597 Y119.778 E3.85726
G1 X115.05 Y120.027 E3.92938
G1 X114.449 Y120.253 E4.00643
G1 X113.903 Y120.419 E4.07492
G1 X113.285 Y120.562 E4.15104
G1 X112.727 Y120.656 E4.21894
G1 X112.048 Y120.721 E4.30079
G1 X111.487 Y120.738 E4.36814
G1 X110.822 Y120.711 E4.44801
G1 X110.253 Y120.653 E4.51664
G1 X109.625 Y120.546 E4.59309
G1 X108.993 Y120.391 E4.67118
G1 X108.405 Y120.203 E4.74525
G1 X107.861 Y119.991 E4.81532
G1 X107.324 Y119.738 E4.88655
G1 X106.815 Y119.461 E4.95609
G1 X106.226 Y119.083 E5.04007
G1 X105.752 Y118.731 E5.11092
G1 X105.271 Y118.322 E5.18669
G1 X104.844 Y117.907 E5.25814
G1 X104.392 Y117.399 E5.33974
G1 X104.03 Y116.933 E5.41055
G1 X103.67 Y116.399 E5.48783
G1 X103.395 Y115.934 E5.55266
G1 X103.087 Y115.312 E5.63595
G1 X102.868 Y114.788 E5.7041
G1 X102.664 Y114.192 E5.77969
G1 X102.506 Y113.608 E5.85229
G1 X102.383 Y112.982 E5.92885
G1 X102.304 Y112.376 E6.00218
G1 X102.266 Y111.751 E6.07732
G1 X102.269 Y111.163 E6.14788
G1 X102.318 Y110.501 E6.22754
G1 X102.391 Y109.959 E6.29317
G1 X102.535 Y109.28 E6.37646
G1 X102.692 Y108.72 E6.44625
G1 X102.903 Y108.122 E6.52235
G1 X103.142 Y107.567 E6.59486
G1 X103.429 Y107.008 E6.67026
G1 X103.752 Y106.471 E6.74546
G1 X104.106 Y105.965 E6.81957
G1 X104.456 Y105.523 E6.88722
G1 X104.883 Y105.054 E6.96333
G0 F3600 X105.177 Y105.326
G1 F1800 X105.561 Y104.954 E7.02749
G1 X106.082 Y104.519 E7.10894
G1 X106.522 Y104.197 E7.17436
G1 X107.088 Y103.844 E7.25441
G1 X107.74 Y103.504 E7.34265
G1 X108.46 Y103.2 E7.43644
G1 X109.231 Y102.96 E7.53334
G1 X109.73 Y102.841 E7.59489
G1 X110.398 Y102.732 E7.67611
G1 X110.938 Y102.68 E7.74121
G1 X111.555 Y102.663 E7.81528
G1 X112.091 Y102.681 E7.87964
G1 X112.757 Y102.753 E7.96002
G1 X113.505 Y102.894 E8.05137
G1 X114.265 Y103.105 E8.14601
G1 X114.99 Y103.381 E8.23911
G1 X115.461 Y103.599 E8.30139
G1 X116.065 Y103.934 E8.38427
G1 X116.508 Y104.217 E8.44735
G1 X116.998 Y104.583 E8.52074
G1 X117.593 Y105.1 E8.61533
G1 X118.148 Y105.675 E8.71123
G1 X118.658 Y106.318 E8.80971
G1 X118.952 Y106.75 E8.87242
G1 X119.277 Y107.304 E8.94949
G1 X119.532 Y107.813 E9.01781
G1 X119.764 Y108.369 E9.09011
G1 X119.952 Y108.918 E9.15974
G1 X120.111 Y109.512 E9.23353
G1 X120.217 Y110.039 E9.29804
G1 X120.299 Y110.676 E9.37511
G1 X120.334 Y111.224 E9.441
G1 X120.33 Y111.849 E9.516
G1 X120.297 Y112.352 E9.57649
G1 X120.197 Y113.064 E9.66277
G1 X120.045 Y113.747 E9.74674
G1 X119.809 Y114.516 E9.84326
G1 X119.486 Y115.282 E9.94302
G1 X119.126 Y115.963 E10.03546
G1 X118.7 Y116.624 E10.12982
G1 X118.194 Y117.266 E10.22792
G1 X117.847 Y117.649 E10.28993
G1 X117.41 Y118.07 E10.36275
G1 X116.973 Y118.438 E10.43131
G1 X116.443 Y118.825 E10.51006
G1 X115.994 Y119.11 E10.57388
G1 X115.411 Y119.424 E10.65334
G1 X114.895 Y119.659 E10.72138
G1 X114.312 Y119.877 E10.79607
G1 X113.799 Y120.033 E10.86041
G1 X113.198 Y120.172 E10.93444
G1 X112.672 Y120.26 E10.99843
G1 X112.014 Y120.322 E11.07774
G1 X111.487 Y120.338 E11.14101
G1 X110.842 Y120.312 E11.21847
G1 X110.305 Y120.256 E11.28326
G1 X109.696 Y120.152 E11.3574
G1 X109.101 Y120.006 E11.43092
G1 X108.529 Y119.823 E11.50299
G1 X108.017 Y119.622 E11.56899
G1 X107.497 Y119.378 E11.63792
G1 X107.015 Y119.114 E11.70387
G1 X106.446 Y118.748 E11.78505
G1 X105.999 Y118.417 E11.8518
G1 X105.533 Y118.02 E11.92526
G1 X105.132 Y117.628 E11.99255
G1 X104.693 Y117.136 E12.07168
G1 X104.354 Y116.698 E12.13814
G1 X104.003 Y116.178 E12.21343
G1 X103.746 Y115.741 E12.27426
G1 X103.447 Y115.137 E12.35514
G1 X103.241 Y114.645 E12.41914
G1 X103.044 Y114.065 E12.49265
G1 X102.896 Y113.516 E12.56088
G1 X102.776 Y112.907 E12.63537
G1 X102.702 Y112.337 E12.70434
G1 X102.666 Y111.73 E12.77731
G1 X102.669 Y111.177 E12.84367
G1 X102.717 Y110.534 E12.92104
G1 X102.786 Y110.024 E12.9828
G1 X102.925 Y109.367 E13.06339
G1 X103.073 Y108.839 E13.12919
G1 X103.279 Y108.258 E13.20316
G1 X103.504 Y107.737 E13.27126
G1 X103.783 Y107.193 E13.34463
G1 X104.087 Y106.689 E13.41526
G1 X104.433 Y106.196 E13.48753
G1 X104.762 Y105.781 E13.55108
G1 X105.177 Y105.326 E13.62498
G0 F3600 X105.7 Y105.369
G1 F1800 X106.336 Y104.828 E13.72518
G1 X106.749 Y104.527 E13.78651
G1 X107.296 Y104.185 E13.86392
G1 X107.902 Y103.869 E13.94593
G1 X108.592 Y103.578 E14.0358
G1 X109.344 Y103.343 E14.13034
G1 X110.022 Y103.194 E14.21364
G1 X110.8 Y103.09 E14.30783
G1 X111.563 Y103.063 E14.39945
G1 X112.066 Y103.081 E14.45985
G1 X112.71 Y103.151 E14.53758
G1 X113.405 Y103.282 E14.62245
G1 X114.134 Y103.483 E14.7132
G1 X114.841 Y103.753 E14.80401
G1 X115.5 Y104.072 E14.89187
G1 X116.138 Y104.45 E14.98086
G1 X116.756 Y104.901 E15.07267
G1 X117.311 Y105.383 E15.16088
G1 X117.843 Y105.933 E15.2527
G1 X118.34 Y106.561 E15.3488
G1 X118.717 Y107.132 E15.43091
G1 X119.101 Y107.832 E15.52672
G1 X119.394 Y108.521 E15.61657
G1 X119.57 Y109.036 E15.68188
G1 X119.724 Y109.612 E15.75342
G1 X119.822 Y110.105 E15.81374
G1 X119.902 Y110.724 E15.88864
G1 X119.934 Y111.237 E15.95032
G1 X119.93 Y111.844 E16.02316
G1 X119.87 Y112.547 E16.10783
G1 X119.738 Y113.331 E16.20323
G1 X119.533 Y114.078 E16.29618
G1 X119.292 Y114.735 E16.38016
G1 X118.991 Y115.384 E16.46601
G1 X118.559 Y116.119 E16.56832
G1 X118.169 Y116.664 E16.64874
G1 X117.671 Y117.255 E16.74148
G1 X117.135 Y117.78 E16.83151
G1 X116.725 Y118.125 E16.89581
G1 X116.21 Y118.5 E16.97226
G1 X115.617 Y118.863 E17.05569
G1 X114.909 Y119.219 E17.15079
G1 X114.174 Y119.502 E17.2453
G1 X113.535 Y119.686 E17.3251
G1 X112.789 Y119.84 E17.41651
G1 X111.98 Y119.924 E17.51411
G1 X111.292 Y119.933 E17.59667
G1 X110.541 Y119.884 E17.68699
G1 X109.767 Y119.758 E17.78109
G1 X109.209 Y119.62 E17.85007
G1 X108.654 Y119.442 E17.92001
G1 X108.173 Y119.254 E17.98198
G1 X107.67 Y119.017 E18.0487
G1 X107.216 Y118.768 E18.11084
G1 X106.666 Y118.414 E18.18933
G1 X106.246 Y118.102 E18.25211
G1 X105.796 Y117.718 E18.3231
G1 X105.419 Y117.35 E18.38632
G1 X104.995 Y116.873 E18.46291
G1 X104.677 Y116.463 E18.52517
G1 X104.337 Y115.956 E18.59842
G1 X103.998 Y115.358 E18.68091
G1 X103.672 Y114.651 E18.77434
G1 X103.423 Y113.939 E18.86485
G1 X103.285 Y113.423 E18.92895
G1 X103.169 Y112.833 E19.0011
G1 X103.1 Y112.298 E19.06584
G1 X103.065 Y111.71 E19.13652
G1 X103.068 Y111.191 E19.1988
G1 X103.115 Y110.566 E19.27401
G1 X103.222 Y109.877 E19.35768
G1 X103.402 Y109.128 E19.45012
G1 X103.655 Y108.395 E19.54318
G1 X103.866 Y107.907 E19.60698
G1 X104.138 Y107.378 E19.67835
G1 X104.423 Y106.907 E19.74442
G1 X104.759 Y106.428 E19.81463
G1 X105.2 Y105.889 E19.8982
G1 X105.7 Y105.369 E19.98477
G0 F3600 X105.97 Y105.664
G1 F1800 X106.589 Y105.138 E20.08224
G1 X107.137 Y104.752 E20.16268
G1 X107.746 Y104.392 E20.24757
G1 X108.45 Y104.064 E20.34077
G1 X109.042 Y103.849 E20.41635
G1 X109.736 Y103.657 E20.50276
G1 X110.519 Y103.523 E20.59808
G1 X111.161 Y103.471 E20.67538
G1 X111.571 Y103.463 E20.72459
G1 X112.24 Y103.498 E20.80498
G1 X112.923 Y103.588 E20.88764
G1 X113.73 Y103.779 E20.98716
G1 X114.333 Y103.98 E21.06343
G1 X114.939 Y104.234 E21.14228
G1 X115.67 Y104.629 E21.24199
G1 X116.21 Y104.989 E21.31987
G1 X116.685 Y105.358 E21.39205
G1 X117.332 Y105.969 E21.49884
G1 X117.764 Y106.466 E21.57786
G1 X118.188 Y107.04 E21.66349
G1 X118.584 Y107.703 E21.75616
G1 X118.866 Y108.286 E21.83388
G1 X119.131 Y108.971 E21.92202
G1 X119.337 Y109.713 E22.01442
G1 X119.452 Y110.337 E22.09056
G1 X119.529 Y111.092 E22.18163
G1 X119.53 Y111.838 E22.27115
G1 X119.475 Y112.487 E22.34931
G1 X119.349 Y113.239 E22.44081
G1 X119.149 Y113.966 E22.53129
G1 X118.926 Y114.572 E22.60878
G1 X118.639 Y115.195 E22.69109
G1 X118.219 Y115.908 E22.79039
G1 X117.859 Y116.411 E22.86462
G1 X117.382 Y116.978 E22.95353
G1 X116.86 Y117.489 E23.04119
G1 X116.476 Y117.812 E23.1014
G1 X115.977 Y118.175 E23.17545
G1 X115.431 Y118.509 E23.25226
G1 X114.754 Y118.85 E23.34322
G1 X114.037 Y119.126 E23.43542
G1 X113.447 Y119.296 E23.5091
G1 X112.734 Y119.443 E23.59646
G1 X111.946 Y119.525 E23.69153
G1 X111.312 Y119.534 E23.76762
G1 X110.593 Y119.487 E23.85408
G1 X109.838 Y119.365 E23.94586
G1 X109.317 Y119.235 E24.01029
G1 X108.778 Y119.062 E24.07822
G1 X108.179 Y118.818 E24.15584
G1 X107.603 Y118.529 E24.23317
G1 X106.886 Y118.08 E24.33469
G1 X106.355 Y117.674 E24.4149
G1 X105.835 Y117.204 E24.49901
G1 X105.296 Y116.61 E24.59526
G1 X104.913 Y116.101 E24.6717
G1 X104.516 Y115.482 E24.75995
G1 X104.167 Y114.789 E24.85306
G1 X103.936 Y114.211 E24.92775
G1 X103.715 Y113.504 E25.01664
G1 X103.562 Y112.759 E25.1079
G1 X103.498 Y112.258 E25.16851
G1 X103.465 Y111.689 E25.23691
G1 X103.478 Y111.037 E25.31516
G1 X103.55 Y110.306 E25.40331
G1 X103.706 Y109.54 E25.49711
G1 X103.889 Y108.923 E25.57434
G1 X104.158 Y108.226 E25.664
G1 X104.492 Y107.564 E25.75297
G1 X104.758 Y107.125 E25.81457
G1 X105.085 Y106.659 E25.88288
G1 X105.493 Y106.161 E25.96014
G1 X105.97 Y105.664 E26.0428
G0 F3600 X106.24 Y105.959
G1 F1800 X106.843 Y105.447 E26.13773
G1 X107.346 Y105.093 E26.21154
G1 X107.928 Y104.748 E26.29273
G1 X108.612 Y104.429 E26.38329
G1 X109.154 Y104.233 E26.45246
G1 X109.818 Y104.049 E26.53514
G1 X110.58 Y103.918 E26.62792
G1 X111.169 Y103.871 E26.69883
G1 X111.579 Y103.863 E26.74803
G1 X112.193 Y103.895 E26.82181
G1 X112.847 Y103.981 E26.90097
G1 X113.63 Y104.166 E26.99752
G1 X114.184 Y104.351 E27.06761
G1 X114.763 Y104.593 E27.14291
G1 X115.472 Y104.976 E27.23961
G1 X115.968 Y105.307 E27.31117
G1 X116.424 Y105.661 E27.38044
G1 X117.05 Y106.253 E27.48383
G1 X117.446 Y106.708 E27.55621
G1 X117.851 Y107.257 E27.63808
G1 X118.238 Y107.903 E27.72845
G1 X118.496 Y108.438 E27.79972
G1 X118.749 Y109.089 E27.88353
G1 X118.949 Y109.813 E27.97367
G1 X119.055 Y110.385 E28.04348
G1 X119.129 Y111.105 E28.13033
G1 X119.13 Y111.832 E28.21757
G1 X119.079 Y112.428 E28.28935
G1 X118.96 Y113.146 E28.37669
G1 X118.765 Y113.855 E28.46493
G1 X118.561 Y114.41 E28.53589
G1 X118.286 Y115.007 E28.61476
G1 X117.879 Y115.698 E28.71099
G1 X117.548 Y116.159 E28.7791
G1 X117.093 Y116.701 E28.86402
G1 X116.585 Y117.199 E28.94938
G1 X116.104 Y117.591 E29.02384
G1 X115.508 Y118.004 E29.11086
G1 X114.851 Y118.362 E29.20064
G1 X114.292 Y118.607 E29.27388
G1 X113.627 Y118.837 E29.35832
G1 X112.936 Y119.001 E29.44354
G1 X112.335 Y119.09 E29.51645
G1 X111.641 Y119.138 E29.59993
G1 X110.9 Y119.113 E29.6889
G1 X110.302 Y119.042 E29.76116
G1 X109.614 Y118.903 E29.84539
G1 X108.902 Y118.682 E29.93485
G1 X108.352 Y118.457 E30.00616
G1 X107.803 Y118.183 E30.07979
G1 X107.106 Y117.746 E30.17851
G1 X106.617 Y117.372 E30.25239
G1 X106.122 Y116.926 E30.33234
G1 X105.597 Y116.347 E30.42613
G1 X105.246 Y115.88 E30.49623
G1 X104.867 Y115.289 E30.58048
G1 X104.527 Y114.615 E30.67107
G1 X104.315 Y114.085 E30.73957
G1 X104.104 Y113.412 E30.82421
G1 X103.955 Y112.684 E30.91338
G1 X103.885 Y112.072 E30.9873
G1 X103.862 Y111.389 E31.0693
G1 X103.913 Y110.632 E31.16035
G1 X104.003 Y110.05 E31.23102
G1 X104.166 Y109.367 E31.31528
G1 X104.407 Y108.667 E31.40412
G1 X104.65 Y108.126 E31.47529
G1 X105 Y107.486 E31.56282
G1 X105.411 Y106.89 E31.6497
G1 X105.786 Y106.433 E31.72064
G1 X106.24 Y105.959 E31.7994
G10
;MESH:Propeller Insertion.stl
G0 F3600 X107.988 Y107.785
G0 X108.558 Y108.46
G0 X108.83 Y108.737
;TYPE:WALL-INNER
G11
G1 F1800 X108.779 Y108.782 E31.80756
G1 X108.825 Y108.732 E31.80757
G1 X109.037 Y108.553 E31.84087
G1 X108.83 Y108.737 E31.84104
G0 F3600 X110.315 Y108.046
G0 X111.461 Y107.855
G0 X113.235 Y108.088
G1 F1800 X113.113 Y108.041 E31.85673
G1 X112.665 Y107.866 E31.91445
G1 X112.629 Y107.858 E31.91887
G1 X112.128 Y107.747 E31.98045
G1 X112.069 Y107.734 E31.9877
G1 X111.628 Y107.706 E32.04073
G1 X111.46 Y107.694 E32.06094
G1 X111.113 Y107.724 E32.10273
G1 X110.851 Y107.748 E32.1343
G1 X110.623 Y107.804 E32.16248
G1 X110.26 Y107.894 E32.20736
G1 X110.134 Y107.946 E32.22371
G1 X109.69 Y108.13 E32.28139
G1 X109.662 Y108.147 E32.28532
G1 X109.228 Y108.422 E32.34697
G1 X109.08 Y108.516 E32.36801
G1 X109.215 Y108.402 E32.36868
G1 X109.648 Y108.126 E32.37238
G1 X109.681 Y108.111 E32.37286
G1 X110.118 Y107.908 E32.37734
G1 X110.251 Y107.867 E32.37894
G1 X110.61 Y107.755 E32.3835
G1 X110.845 Y107.716 E32.38665
G1 X111.108 Y107.671 E32.39021
G1 X111.458 Y107.659 E32.39494
G1 X111.631 Y107.653 E32.3975
G1 X112.072 Y107.697 E32.40359
G1 X112.137 Y107.704 E32.40464
G1 X112.636 Y107.824 E32.41068
G1 X112.675 Y107.839 E32.41129
G1 X113.124 Y108.011 E32.41544
G1 X113.241 Y108.075 E32.41651
G1 X113.569 Y108.255 E32.45025
G1 X113.751 Y108.389 E32.47737
G1 X113.557 Y108.276 E32.47812
G1 X113.235 Y108.088 E32.48013
G0 F3600 X113.987 Y108.562
G1 F1800 X114.063 Y108.636 E32.49286
G1 X113.981 Y108.571 E32.4929
G1 X113.787 Y108.415 E32.52274
G1 X113.987 Y108.562 E32.52305
G0 F3600 X112.157 Y107.605
G0 X112.204 Y107.309
;TYPE:WALL-OUTER
G1 F1800 X112.758 Y107.442 E32.59142
G1 X113.294 Y107.647 E32.66028
G1 X113.782 Y107.915 E32.72709
G1 X114.244 Y108.255 E32.79593
G1 X114.652 Y108.65 E32.86407
G1 X115.004 Y109.096 E32.93225
G1 X115.294 Y109.584 E33.00037
G1 X115.514 Y110.104 E33.06813
G1 X115.665 Y110.656 E33.1368
G1 X115.74 Y111.215 E33.20448
G1 X115.74 Y111.785 E33.27288
G1 X115.665 Y112.344 E33.34056
G1 X115.514 Y112.896 E33.40924
G1 X115.294 Y113.416 E33.47699
G1 X115.004 Y113.904 E33.54511
G1 X114.652 Y114.35 E33.61329
G1 X114.244 Y114.745 E33.68144
G1 X113.782 Y115.085 E33.75027
G1 X113.294 Y115.353 E33.81708
G1 X112.758 Y115.558 E33.88595
G1 X112.204 Y115.691 E33.95432
G1 X111.643 Y115.748 E34.02198
G1 X111.072 Y115.728 E34.09054
G1 X110.516 Y115.634 E34.15821
G1 X109.97 Y115.465 E34.2268
G1 X109.46 Y115.228 E34.29428
G1 X108.979 Y114.922 E34.36269
G1 X108.543 Y114.553 E34.43124
G1 X108.167 Y114.136 E34.49861
G1 X107.845 Y113.668 E34.56678
G1 X107.587 Y113.158 E34.63537
G1 X107.401 Y112.622 E34.70345
G1 X107.289 Y112.069 E34.77116
G1 X107.251 Y111.5 E34.83959
