;FLAVOR:UltiGCode
;TIME:5341
;MATERIAL:6726
;MATERIAL2:0
;NOZZLE_DIAMETER:0.4
;MINX:38.449
;MINY:70.077
;MINZ:0.3
;MAXX:184.551
;MAXY:134.455
;MAXZ:5
;Generated with Cura_SteamEngine 4.8.0
M82 ;absolute extrusion mode
G0 F3000 Y50 ;avoid prime blob
G92 E0
G92 E0
G10
;LAYER_COUNT:48
;LAYER:0
M107
G0 F3600 X52.572 Y75.642 Z0.3
;TYPE:SKIRT
G11
G1 F1800 X53.233 Y75.194 E0.09582
G1 X53.766 Y74.868 E0.1708
G1 X54.758 Y74.286 E0.30881
G1 X55.406 Y73.918 E0.39824
G1 X55.98 Y73.625 E0.47557
G1 X57.018 Y73.123 E0.61393
G1 X57.659 Y72.823 E0.69886
G1 X57.809 Y72.757 E0.71853
G1 X58.442 Y72.5 E0.80051
G1 X59.398 Y72.127 E0.92365
G1 X60.046 Y71.885 E1.00666
G1 X60.791 Y71.644 E1.10062
G1 X61.823 Y71.336 E1.22986
G1 X62.521 Y71.136 E1.31699
G1 X62.681 Y71.094 E1.33684
G1 X63.331 Y70.944 E1.41689
G1 X64.363 Y70.723 E1.54353
G1 X65.004 Y70.595 E1.62197
G1 X65.755 Y70.478 E1.71318
G1 X66.885 Y70.329 E1.84995
G1 X67.449 Y70.264 E1.91808
G1 X68.622 Y70.165 E2.05934
G1 X69.494 Y70.117 E2.16414
G1 X70.512 Y70.084 E2.28636
G1 X70.607 Y70.082 E2.29777
G1 X73.348 Y70.077 E2.62669
G1 X78.816 Y70.096 E3.28285
G1 X179.563 Y70.097 E15.37249
G1 X180.261 Y70.107 E15.45626
G1 X180.877 Y70.165 E15.53051
G1 X181.372 Y70.268 E15.59118
G1 X181.945 Y70.478 E15.66441
G1 X182.401 Y70.697 E15.72512
G1 X182.959 Y71.093 E15.80722
G1 X183.335 Y71.431 E15.86789
G1 X183.721 Y71.905 E15.94125
G1 X183.996 Y72.329 E16.00189
G1 X184.235 Y72.852 E16.0709
G1 X184.396 Y73.331 E16.13154
G1 X184.504 Y73.936 E16.20528
G1 X184.547 Y74.519 E16.27543
G1 X184.551 Y74.868 E16.31732
G1 X184.55 Y129.426 E22.86428
G1 X184.54 Y130.143 E22.95032
G1 X184.486 Y130.737 E23.0219
G1 X184.387 Y131.233 E23.08259
G1 X184.166 Y131.839 E23.16
G1 X183.945 Y132.294 E23.2207
G1 X183.559 Y132.838 E23.30074
G1 X183.221 Y133.214 E23.36141
G1 X182.739 Y133.606 E23.43597
G1 X182.315 Y133.881 E23.49661
G1 X181.799 Y134.117 E23.5647
G1 X181.32 Y134.279 E23.62538
G1 X180.705 Y134.389 E23.70035
G1 X180.115 Y134.431 E23.77133
G1 X179.801 Y134.435 E23.80901
G1 X78.479 Y134.435 E35.96765
G1 X73.351 Y134.455 E36.58302
G1 X70.91 Y134.45 E36.87594
G1 X69.845 Y134.431 E37.00376
G1 X69.639 Y134.423 E37.0285
G1 X68.735 Y134.373 E37.13714
G1 X67.937 Y134.314 E37.23316
G1 X66.653 Y134.171 E37.3882
G1 X65.856 Y134.066 E37.48466
G1 X65.109 Y133.955 E37.57529
G1 X64.472 Y133.831 E37.65316
G1 X63.338 Y133.588 E37.79233
G1 X62.666 Y133.434 E37.87506
G1 X62.502 Y133.392 E37.89538
G1 X61.894 Y133.218 E37.97126
G1 X60.858 Y132.907 E38.10107
G1 X60.221 Y132.706 E38.18122
G1 X59.486 Y132.438 E38.2751
G1 X58.505 Y132.055 E38.40147
G1 X57.791 Y131.766 E38.49391
G1 X57.143 Y131.47 E38.5794
G1 X56.125 Y130.976 E38.71518
G1 X55.417 Y130.619 E38.81033
G1 X54.825 Y130.285 E38.89189
G1 X53.89 Y129.734 E39.02213
G1 X53.205 Y129.318 E39.1183
G1 X52.633 Y128.932 E39.20111
G1 X51.767 Y128.326 E39.32794
G1 X51.087 Y127.833 E39.42873
G1 X50.599 Y127.444 E39.50362
G1 X49.699 Y126.7 E39.64375
G1 X49.122 Y126.207 E39.73482
G1 X48.644 Y125.761 E39.81327
G1 X47.81 Y124.949 E39.95295
G1 X47.284 Y124.421 E40.04238
G1 X47.148 Y124.277 E40.06615
G1 X46.782 Y123.868 E40.13201
G1 X46.116 Y123.107 E40.25337
G1 X45.612 Y122.516 E40.34657
G1 X45.505 Y122.384 E40.36696
G1 X45.077 Y121.823 E40.45164
G1 X44.531 Y121.087 E40.56161
G1 X44.059 Y120.432 E40.65849
G1 X43.926 Y120.238 E40.68672
G1 X43.635 Y119.784 E40.75143
G1 X43.107 Y118.941 E40.87079
G1 X42.674 Y118.223 E40.97141
G1 X42.384 Y117.69 E41.04422
G1 X41.825 Y116.618 E41.1893
G1 X41.507 Y115.983 E41.27452
G1 X41.415 Y115.784 E41.30083
G1 X41.194 Y115.276 E41.36731
G1 X40.803 Y114.348 E41.48815
G1 X40.524 Y113.661 E41.57713
G1 X40.265 Y112.935 E41.66963
G1 X39.915 Y111.876 E41.80347
G1 X39.719 Y111.258 E41.88127
G1 X39.633 Y110.955 E41.91906
G1 X39.496 Y110.418 E41.98557
G1 X39.244 Y109.388 E42.11281
G1 X39.094 Y108.735 E42.19321
G1 X38.96 Y108.009 E42.2818
G1 X38.78 Y106.893 E42.41746
G1 X38.68 Y106.216 E42.49958
G1 X38.599 Y105.423 E42.59523
G1 X38.514 Y104.328 E42.72703
G1 X38.463 Y103.571 E42.81807
G1 X38.457 Y103.388 E42.84004
G1 X38.449 Y102.791 E42.91169
G1 X38.449 Y101.769 E43.03433
G1 X38.459 Y101.062 E43.11918
G1 X38.503 Y100.302 E43.21053
G1 X38.591 Y99.205 E43.3426
G1 X38.669 Y98.395 E43.44024
G1 X38.759 Y97.77 E43.51602
G1 X38.933 Y96.689 E43.64741
G1 X39.075 Y95.885 E43.74538
G1 X39.226 Y95.216 E43.82768
G1 X39.497 Y94.107 E43.96468
G1 X39.665 Y93.459 E44.04501
G1 X39.881 Y92.756 E44.13326
G1 X40.237 Y91.681 E44.26915
G1 X40.502 Y90.923 E44.36551
G1 X40.726 Y90.362 E44.438
G1 X41.174 Y89.302 E44.57609
G1 X41.463 Y88.644 E44.66233
G1 X41.804 Y87.953 E44.7548
G1 X42.304 Y86.995 E44.88447
G1 X42.686 Y86.286 E44.98112
G1 X42.788 Y86.111 E45.00542
G1 X43.082 Y85.631 E45.07297
G1 X43.601 Y84.805 E45.19003
G1 X44.05 Y84.111 E45.28922
G1 X44.148 Y83.968 E45.31002
G1 X44.485 Y83.505 E45.37874
G1 X45.081 Y82.704 E45.49855
G1 X45.536 Y82.11 E45.58834
G1 X46.035 Y81.516 E45.68143
G1 X46.73 Y80.723 E45.80797
G1 X47.206 Y80.194 E45.89336
G1 X47.753 Y79.638 E45.98696
G1 X48.55 Y78.863 E46.12036
G1 X49.101 Y78.344 E46.2112
G1 X49.608 Y77.907 E46.29152
G1 X50.463 Y77.2 E46.42465
G1 X51.044 Y76.732 E46.51418
G1 X51.172 Y76.634 E46.53352
G1 X51.67 Y76.272 E46.6074
G1 X52.572 Y75.642 E46.73943
G0 F3600 X80.4 Y77.766
;TYPE:SUPPORT
G1 F1800 X80.447 Y77.294 E46.79635
G1 X80.583 Y76.858 E46.85115
G1 X80.816 Y76.437 E46.9089
G1 X81.124 Y76.078 E46.96566
G1 X81.491 Y75.795 E47.02127
G1 X81.913 Y75.588 E47.07767
G1 X82.375 Y75.468 E47.13495
G1 X82.839 Y75.445 E47.1907
G1 X83.303 Y75.516 E47.24703
G1 X83.751 Y75.682 E47.30436
G1 X84.138 Y75.925 E47.3592
G1 X84.489 Y76.258 E47.41726
G1 X84.748 Y76.625 E47.47116
G1 X84.939 Y77.07 E47.52927
G1 X85.035 Y77.535 E47.58625
G1 X85.035 Y78 E47.64205
G1 X84.943 Y78.45 E47.69717
G1 X84.75 Y78.901 E47.75603
G1 X84.492 Y79.272 E47.81026
G1 X84.144 Y79.603 E47.86789
G1 X83.743 Y79.852 E47.92453
G1 X83.306 Y80.014 E47.98046
G1 X82.839 Y80.086 E48.03716
G1 X82.375 Y80.063 E48.09291
G1 X81.917 Y79.944 E48.1497
G1 X81.49 Y79.735 E48.20675
G1 X81.123 Y79.451 E48.26243
G1 X80.817 Y79.094 E48.31886
G1 X80.588 Y78.682 E48.37542
G1 X80.447 Y78.233 E48.43189
G1 X80.4 Y77.766 E48.48822
G0 F3600 X80.644 Y77.343
G1 F1800 X84.791 Y77.343 E48.98586
G0 F3600 X82.677 Y75.653
G1 F1800 X82.677 Y79.877 E49.49274
G0 F3600 X82.732 Y124.445
G1 F1800 X83.201 Y124.517 E49.54968
G1 X83.637 Y124.679 E49.60549
G1 X84.037 Y124.928 E49.66203
G1 X84.38 Y125.254 E49.71882
G1 X84.645 Y125.631 E49.77411
G1 X84.833 Y126.069 E49.83131
G1 X84.929 Y126.535 E49.88841
G1 X84.929 Y127 E49.94421
G1 X84.837 Y127.45 E49.99932
G1 X84.644 Y127.901 E50.05819
G1 X84.384 Y128.275 E50.11285
G1 X84.042 Y128.598 E50.1693
G1 X83.633 Y128.854 E50.2272
G1 X83.201 Y129.015 E50.28252
G1 X82.733 Y129.086 E50.33933
G1 X82.269 Y129.063 E50.39508
G1 X81.807 Y128.943 E50.45236
G1 X81.39 Y128.739 E50.50806
G1 X81.013 Y128.446 E50.56536
G1 X80.711 Y128.094 E50.62101
G1 X80.481 Y127.681 E50.67774
G1 X80.341 Y127.233 E50.73407
G1 X80.294 Y126.765 E50.79051
G1 X80.341 Y126.293 E50.84743
G1 X80.475 Y125.864 E50.90136
G1 X80.712 Y125.434 E50.96028
G1 X81.017 Y125.078 E51.01653
G1 X81.38 Y124.798 E51.07155
G1 X81.81 Y124.587 E51.12902
G1 X82.27 Y124.468 E51.18604
G1 X82.732 Y124.445 E51.24155
G0 F3600 X82.677 Y124.648
G1 F1800 X82.677 Y128.882 E51.74963
G0 F3600 X84.319 Y128.016
G1 F1800 X80.906 Y128.016 E52.15919
G0 F3600 X81.047 Y125.349
G1 F1800 X84.189 Y125.349 E52.53623
G10
G0 F3600 X90.806 Y125.452
G0 X90.887 Y127.049
G0 X164.559 Y127.02
G0 X174.294 Y126.765
G11
G1 F1800 X174.341 Y126.293 E52.59315
G1 X174.475 Y125.864 E52.64708
G1 X174.712 Y125.434 E52.706
G1 X175.017 Y125.078 E52.76226
G1 X175.38 Y124.798 E52.81727
G1 X175.81 Y124.587 E52.87475
G1 X176.27 Y124.468 E52.93176
G1 X176.732 Y124.445 E52.98727
G1 X177.201 Y124.517 E53.04421
G1 X177.637 Y124.679 E53.10003
G1 X178.037 Y124.928 E53.15657
G1 X178.38 Y125.254 E53.21335
G1 X178.645 Y125.631 E53.26865
G1 X178.833 Y126.069 E53.32585
G1 X178.929 Y126.535 E53.38294
G1 X178.929 Y127 E53.43874
G1 X178.837 Y127.45 E53.49386
G1 X178.644 Y127.901 E53.55273
G1 X178.384 Y128.275 E53.60739
G1 X178.042 Y128.598 E53.66384
G1 X177.633 Y128.854 E53.72174
G1 X177.201 Y129.015 E53.77706
G1 X176.733 Y129.086 E53.83386
G1 X176.269 Y129.063 E53.88961
G1 X175.807 Y128.943 E53.94689
G1 X175.39 Y128.739 E54.0026
G1 X175.013 Y128.446 E54.05989
G1 X174.711 Y128.094 E54.11555
G1 X174.481 Y127.681 E54.17228
G1 X174.341 Y127.233 E54.2286
G1 X174.294 Y126.765 E54.28504
G0 F3600 X174.908 Y128.016
G1 F1800 X178.32 Y128.016 E54.69448
G0 F3600 X178.689 Y127.175
G1 F1800 X178.689 Y126.363 E54.79192
G0 F3600 X178.191 Y125.349
G1 F1800 X175.048 Y125.349 E55.16908
G0 F3600 X176.022 Y124.739
G1 F1800 X176.022 Y128.791 E55.65532
G0 F3600 X176.839 Y80.086
G1 F1800 X176.375 Y80.063 E55.71107
G1 X175.917 Y79.944 E55.76786
G1 X175.49 Y79.735 E55.8249
G1 X175.123 Y79.451 E55.88059
G1 X174.817 Y79.094 E55.93701
G1 X174.588 Y78.682 E55.99358
G1 X174.447 Y78.233 E56.05005
G1 X174.4 Y77.766 E56.10638
G1 X174.447 Y77.294 E56.1633
G1 X174.583 Y76.858 E56.2181
G1 X174.816 Y76.437 E56.27584
G1 X175.124 Y76.078 E56.33261
G1 X175.491 Y75.795 E56.38822
G1 X175.913 Y75.588 E56.44462
G1 X176.375 Y75.468 E56.5019
G1 X176.839 Y75.445 E56.55765
G1 X177.303 Y75.516 E56.61398
G1 X177.751 Y75.682 E56.67131
G1 X178.138 Y75.925 E56.72615
G1 X178.489 Y76.258 E56.78421
G1 X178.748 Y76.625 E56.83811
G1 X178.939 Y77.07 E56.89622
G1 X179.035 Y77.535 E56.9532
G1 X179.035 Y78 E57.009
G1 X178.943 Y78.45 E57.06411
G1 X178.75 Y78.901 E57.12298
G1 X178.492 Y79.272 E57.17721
G1 X178.144 Y79.603 E57.23484
G1 X177.743 Y79.852 E57.29148
G1 X177.306 Y80.014 E57.34741
G1 X176.839 Y80.086 E57.40411
G0 F3600 X176.022 Y79.764
G1 F1800 X176.022 Y75.766 E57.88387
G0 F3600 X174.644 Y77.343
G1 F1800 X178.792 Y77.343 E58.38163
G0 F3600 X178.689 Y76.996
G1 F1800 X178.689 Y78.535 E58.56631
G10
;MESH:Lid.stl
G0 F3600 X177.849 Y75.466
G0 X178.688 Y73.916
G0 X176.129 Y73.879
G0 X176.144 Y73.977
;TYPE:WALL-INNER
G11
G1 F1800 X175.392 Y74.172 E58.65954
G1 X175.153 Y74.289 E58.69147
G1 X174.697 Y74.513 E58.75243
G1 X174.083 Y74.989 E58.84566
G1 X173.578 Y75.577 E58.93867
G1 X173.206 Y76.247 E59.03063
G1 X173.166 Y76.364 E59.04547
G1 X172.969 Y76.996 E59.12491
G1 X172.892 Y77.766 E59.21777
G1 X172.969 Y78.536 E59.31063
G1 X173.202 Y79.276 E59.40373
G1 X173.574 Y79.946 E59.49569
G1 X173.652 Y80.042 E59.51054
G1 X174.084 Y80.543 E59.58992
G1 X174.697 Y81.018 E59.68298
G1 X175.392 Y81.359 E59.77588
G1 X176.144 Y81.553 E59.86907
G1 X176.915 Y81.593 E59.96172
G1 X177.682 Y81.475 E60.05484
G1 X178.409 Y81.206 E60.14786
G1 X179.067 Y80.796 E60.24089
G1 X179.63 Y80.261 E60.33409
G1 X180.073 Y79.625 E60.4271
G1 X180.353 Y78.973 E60.51225
G1 X180.376 Y78.918 E60.5194
G1 X180.403 Y78.798 E60.53416
G1 X180.535 Y78.151 E60.6134
G1 X180.535 Y77.379 E60.70604
G1 X180.379 Y76.62 E60.79903
G1 X180.353 Y76.558 E60.8071
G1 X180.076 Y75.914 E60.89122
G1 X180.008 Y75.811 E60.90603
G1 X179.628 Y75.27 E60.98537
G1 X179.067 Y74.736 E61.07831
G1 X178.41 Y74.326 E61.17124
G1 X178.309 Y74.288 E61.18419
G1 X177.682 Y74.056 E61.26442
G1 X176.915 Y73.94 E61.3575
G1 X176.144 Y73.977 E61.45013
G0 F3600 X176.129 Y73.879
G0 X177.884 Y73.892
G0 X180.18 Y73.936
G0 X180.466 Y130.524
G0 X177.822 Y130.639
G0 X176.022 Y130.652
G0 X176.037 Y130.554
G1 F1800 X176.809 Y130.591 E61.54287
G1 X177.576 Y130.475 E61.63596
G1 X178.202 Y130.243 E61.71607
G1 X178.304 Y130.205 E61.72914
G1 X178.961 Y129.795 E61.82207
G1 X179.524 Y129.261 E61.91518
G1 X179.967 Y128.625 E62.00819
G1 X180.27 Y127.918 E62.1005
G1 X180.297 Y127.798 E62.11526
G1 X180.352 Y127.529 E62.1482
G1 X180.429 Y127.151 E62.1945
G1 X180.429 Y126.379 E62.28714
G1 X180.352 Y126.003 E62.33319
G1 X180.273 Y125.618 E62.38036
G1 X179.97 Y124.914 E62.47233
G1 X179.902 Y124.811 E62.48714
G1 X179.523 Y124.269 E62.5665
G1 X178.961 Y123.735 E62.65953
G1 X178.303 Y123.325 E62.75257
G1 X177.576 Y123.056 E62.84559
G1 X176.809 Y122.938 E62.93871
G1 X176.037 Y122.978 E63.03147
G1 X175.287 Y123.172 E63.12443
G1 X174.59 Y123.513 E63.21755
G1 X173.976 Y123.989 E63.31078
G1 X173.472 Y124.578 E63.4038
G1 X173.1 Y125.247 E63.49566
G1 X173.06 Y125.364 E63.51049
G1 X172.863 Y125.996 E63.58993
G1 X172.786 Y126.765 E63.68268
G1 X172.863 Y127.536 E63.77566
G1 X173.096 Y128.276 E63.86875
G1 X173.468 Y128.946 E63.96071
G1 X173.546 Y129.042 E63.97556
G1 X173.977 Y129.542 E64.05477
G1 X174.59 Y130.018 E64.14791
G1 X175.047 Y130.242 E64.20898
G1 X175.287 Y130.359 E64.24102
G1 X176.037 Y130.554 E64.33401
G0 F3600 X176.022 Y130.652
G0 X82.022 Y130.652
G0 X82.037 Y130.554
G1 F1800 X82.809 Y130.591 E64.42676
G1 X83.576 Y130.475 E64.51984
G1 X84.202 Y130.243 E64.59996
G1 X84.304 Y130.205 E64.61302
G1 X84.961 Y129.795 E64.70595
G1 X85.524 Y129.261 E64.79907
G1 X85.967 Y128.625 E64.89208
G1 X86.27 Y127.918 E64.98438
G1 X86.297 Y127.798 E64.99914
G1 X86.429 Y127.151 E65.07838
G1 X86.429 Y126.379 E65.17102
G1 X86.273 Y125.618 E65.26424
G1 X85.97 Y124.914 E65.35621
G1 X85.902 Y124.811 E65.37102
G1 X85.523 Y124.269 E65.45038
G1 X84.961 Y123.735 E65.54341
G1 X84.303 Y123.325 E65.63645
G1 X83.576 Y123.056 E65.72947
G1 X82.809 Y122.938 E65.82259
G1 X82.037 Y122.978 E65.91536
G1 X81.287 Y123.172 E66.00832
G1 X80.59 Y123.513 E66.10143
G1 X79.976 Y123.989 E66.19466
G1 X79.472 Y124.578 E66.28768
G1 X79.1 Y125.247 E66.37954
G1 X79.06 Y125.364 E66.39438
G1 X78.863 Y125.996 E66.47382
G1 X78.786 Y126.765 E66.56656
G1 X78.863 Y127.536 E66.65954
G1 X79.096 Y128.276 E66.75264
G1 X79.468 Y128.946 E66.8446
G1 X79.546 Y129.042 E66.85944
G1 X79.977 Y129.542 E66.93865
G1 X80.59 Y130.018 E67.03179
G1 X81.046 Y130.242 E67.09275
G1 X81.287 Y130.359 E67.1249
G1 X82.037 Y130.554 E67.21789
G0 F3600 X82.022 Y130.652
G0 X49.107 Y120.601
G0 X49.032 Y120.666
G1 F1800 X48.53 Y120.097 E67.30895
G1 X47.174 Y118.275 E67.58149
G1 X45.976 Y116.362 E67.85235
G1 X44.924 Y114.342 E68.12566
G1 X44.048 Y112.267 E68.39594
G1 X43.328 Y110.096 E68.67041
G1 X42.791 Y107.896 E68.94216
G1 X42.43 Y105.663 E69.2136
G1 X42.311 Y104.154 E69.39524
G1 X42.249 Y103.403 E69.48567
G1 X42.249 Y101.127 E69.75879
G1 X42.43 Y98.867 E70.03086
G1 X42.791 Y96.635 E70.30218
G1 X43.328 Y94.435 E70.57393
G1 X44.049 Y92.26 E70.84889
G1 X44.925 Y90.186 E71.11906
G1 X45.975 Y88.169 E71.39194
G1 X47.174 Y86.256 E71.66286
G1 X48.524 Y84.44 E71.9344
G1 X50.031 Y82.721 E72.20872
G1 X51.65 Y81.149 E72.47952
G1 X53.392 Y79.707 E72.75089
G1 X55.267 Y78.394 E73.02557
G1 X57.21 Y77.251 E73.29608
G1 X59.25 Y76.263 E73.56808
G1 X61.365 Y75.439 E73.84046
G1 X63.537 Y74.788 E74.11256
G1 X65.759 Y74.311 E74.38527
G1 X68.01 Y74.014 E74.65773
G1 X69.395 Y73.923 E74.82429
G1 X70.286 Y73.883 E74.93132
G1 X73.517 Y73.877 E75.31904
G1 X78.711 Y73.896 E75.94232
G1 X81.125 Y73.896 E76.232
G1 X81.392 Y73.896 E76.26404
G1 X82.144 Y73.896 E76.35428
G1 X82.915 Y73.896 E76.4468
G1 X83.682 Y73.896 E76.53884
G1 X84.35 Y73.896 E76.619
G1 X175.125 Y73.896 E87.512
G1 X175.392 Y73.896 E87.53922
G1 X176.144 Y73.896 E87.57909
G1 X176.915 Y73.896 E87.59354
G1 X177.682 Y73.896 E87.61683
G1 X178.351 Y73.896 E87.67343
G1 X180.184 Y73.897 E87.89339
G1 X180.485 Y73.973 E87.93064
G1 X180.674 Y74.162 E87.96271
G1 X180.751 Y74.465 E88.00023
G1 X180.751 Y76.552 E88.25067
G1 X180.751 Y76.62 E88.25855
G1 X180.751 Y77.379 E88.32539
G1 X180.751 Y78.151 E88.37541
G1 X180.751 Y78.798 E88.43004
G1 X180.751 Y78.918 E88.44305
G1 X180.751 Y78.978 E88.45003
G1 X180.751 Y125.995 E94.09207
G1 X180.751 Y126.379 E94.13369
G1 X180.751 Y127.151 E94.20826
