;FLAVOR:UltiGCode
;TIME:5757
;MATERIAL:6550
;MATERIAL2:0
;NOZZLE_DIAMETER:0.4
;MINX:76.879
;MINY:86.878
;MINZ:0.3
;MAXX:146.121
;MAXY:136.121
;MAXZ:16
;Generated with Cura_SteamEngine 4.8.0
M82 ;absolute extrusion mode
G0 F3000 Y50 ;avoid prime blob
G92 E0
G92 E0
G10
;LAYER_COUNT:158
;LAYER:0
M107
G0 F3600 X78.369 Y87.85 Z0.3
;TYPE:SKIRT
G11
G1 F1800 X78.807 Y87.541 E0.06432
G1 X79.327 Y87.284 E0.13393
G1 X79.676 Y87.145 E0.17901
G1 X80.188 Y86.984 E0.24341
G1 X80.86 Y86.892 E0.32481
G1 X81.508 Y86.878 E0.40258
G1 X141.345 Y86.879 E7.58302
G1 X142.048 Y86.889 E7.66739
G1 X142.582 Y86.937 E7.73173
G1 X143.233 Y87.108 E7.8125
G1 X143.542 Y87.221 E7.85198
G1 X144.031 Y87.442 E7.91638
G1 X144.481 Y87.733 E7.98068
G1 X144.883 Y88.088 E8.04504
G1 X145.223 Y88.492 E8.10841
G1 X145.38 Y88.709 E8.14055
G1 X145.661 Y89.165 E8.20482
G1 X145.871 Y89.659 E8.26924
G1 X146.033 Y90.297 E8.34822
G1 X146.109 Y90.891 E8.42009
G1 X146.121 Y91.457 E8.48802
G1 X146.121 Y131.328 E13.27254
G1 X146.11 Y132.055 E13.35979
G1 X146.062 Y132.59 E13.42425
G1 X145.89 Y133.24 E13.50493
G1 X145.78 Y133.54 E13.54328
G1 X145.558 Y134.029 E13.60772
G1 X145.267 Y134.479 E13.67203
G1 X144.911 Y134.88 E13.73638
G1 X144.328 Y135.353 E13.82646
G1 X143.875 Y135.64 E13.89082
G1 X143.384 Y135.856 E13.95519
G1 X142.712 Y136.031 E14.03852
G1 X142.099 Y136.11 E14.11268
G1 X141.502 Y136.121 E14.18434
G1 X81.651 Y136.121 E21.36646
G1 X80.943 Y136.11 E21.45143
G1 X80.409 Y136.061 E21.51578
G1 X79.827 Y135.914 E21.58781
G1 X79.368 Y135.744 E21.64654
G1 X78.884 Y135.513 E21.7109
G1 X78.44 Y135.212 E21.77527
G1 X78.046 Y134.849 E21.83956
G1 X77.668 Y134.369 E21.91287
G1 X77.531 Y134.161 E21.94276
G1 X77.27 Y133.693 E22.00706
G1 X77.017 Y132.936 E22.10284
G1 X76.967 Y132.703 E22.13144
G1 X76.889 Y132.081 E22.20667
G1 X76.879 Y131.456 E22.28167
G1 X76.879 Y91.617 E27.06235
G1 X76.89 Y90.939 E27.14373
G1 X76.939 Y90.405 E27.20807
G1 X77.075 Y89.859 E27.2756
G1 X77.151 Y89.631 E27.30444
G1 X77.358 Y89.136 E27.36882
G1 X77.654 Y88.646 E27.43752
G1 X77.982 Y88.221 E27.50194
G1 X78.369 Y87.85 E27.56627
G0 F3600 X78.668 Y88.123
G1 F1800 X79.088 Y87.84 E27.62705
G1 X79.824 Y87.516 E27.72354
G1 X80.307 Y87.367 E27.7842
G1 X80.876 Y87.292 E27.85307
G1 X81.512 Y87.278 E27.92941
G1 X141.34 Y87.279 E35.10877
G1 X142.043 Y87.289 E35.19314
G1 X142.546 Y87.336 E35.25376
G1 X143.096 Y87.484 E35.32211
G1 X143.405 Y87.597 E35.36159
G1 X143.865 Y87.807 E35.42227
G1 X144.285 Y88.088 E35.48291
G1 X144.657 Y88.431 E35.54363
G1 X145.056 Y88.943 E35.62152
G1 X145.319 Y89.375 E35.68221
G1 X145.51 Y89.843 E35.74287
G1 X145.642 Y90.381 E35.80935
G1 X145.71 Y90.909 E35.87323
G1 X145.721 Y91.462 E35.9396
G1 X145.721 Y131.322 E40.7228
G1 X145.71 Y132.049 E40.81005
G1 X145.662 Y132.553 E40.87081
G1 X145.514 Y133.103 E40.93915
G1 X145.404 Y133.403 E40.9775
G1 X145.193 Y133.862 E41.03812
G1 X144.913 Y134.283 E41.09879
G1 X144.569 Y134.654 E41.1595
G1 X144.09 Y135.032 E41.23273
G1 X143.661 Y135.3 E41.29343
G1 X143.196 Y135.498 E41.35407
G1 X142.627 Y135.64 E41.42445
G1 X142.083 Y135.71 E41.49027
G1 X141.498 Y135.721 E41.56048
G1 X81.657 Y135.721 E48.7414
G1 X80.949 Y135.71 E48.82637
G1 X80.446 Y135.662 E48.887
G1 X79.957 Y135.536 E48.9476
G1 X79.513 Y135.371 E49.00444
G1 X79.058 Y135.151 E49.06509
G1 X78.643 Y134.862 E49.12577
G1 X78.279 Y134.512 E49.18637
G1 X77.865 Y133.941 E49.27101
G1 X77.621 Y133.498 E49.3317
G1 X77.408 Y132.852 E49.41332
G1 X77.358 Y132.619 E49.44192
G1 X77.289 Y132.066 E49.50879
G1 X77.279 Y131.453 E49.58236
G1 X77.279 Y91.623 E54.36196
G1 X77.29 Y90.945 E54.44333
G1 X77.339 Y90.442 E54.50398
G1 X77.53 Y89.757 E54.58931
G1 X77.727 Y89.292 E54.64991
G1 X77.988 Y88.866 E54.70987
G1 X78.299 Y88.467 E54.77057
G1 X78.668 Y88.123 E54.83111
G10
;MESH:PCBBox.stl
G0 F3600 X80.014 Y90.387
G0 X80.895 Y90.958
G0 X81.292 Y91.078
;TYPE:WALL-INNER
G11
G1 F1800 X141.892 Y91.079 E62.10311
G1 X141.921 Y91.109 E62.10812
G1 X141.921 Y131.892 E67.00208
G1 X141.891 Y131.921 E67.00708
G1 X81.108 Y131.921 E74.30104
G1 X81.079 Y131.891 E74.30605
G1 X81.079 Y91.273 E79.18021
G1 X81.079 Y91.088 E79.20241
G1 X81.107 Y91.078 E79.20598
G1 X81.292 Y91.078 E79.22818
G0 F3600 X141.964 Y90.978
G0 X141.965 Y90.679
;TYPE:WALL-OUTER
G1 F1800 X142.201 Y90.767 E79.2584
G1 X142.321 Y91.017 E79.29168
G1 X142.321 Y131.965 E84.20544
G1 X142.233 Y132.201 E84.23567
G1 X141.983 Y132.321 E84.26894
G1 X81.035 Y132.321 E91.5827
G1 X80.799 Y132.233 E91.61293
G1 X80.679 Y131.983 E91.6462
G1 X80.679 Y91.021 E96.56164
G1 X80.698 Y90.921 E96.57386
G1 X80.798 Y90.767 E96.59589
G1 X81.035 Y90.678 E96.62627
G1 X141.965 Y90.679 E103.93787
G0 F3600 X142.153 Y90.749
G0 X141.531 Y91.469
;TYPE:SKIN
G1 F1800 X141.531 Y131.531 E108.74531
G1 X81.469 Y131.531 E115.95275
G1 X81.469 Y91.468 E120.76031
G1 X141.531 Y91.469 E127.96775
G0 F3600 X141.35 Y92.136
G1 F1800 X140.863 Y91.648 E128.05048
G0 F3600 X140.297 Y91.648
G1 F1800 X141.35 Y92.701 E128.22918
G0 F3600 X141.35 Y93.267
G1 F1800 X139.732 Y91.648 E128.50385
G0 F3600 X139.166 Y91.648
G1 F1800 X141.35 Y93.833 E128.87457
G0 F3600 X141.35 Y94.398
G1 F1800 X138.6 Y91.648 E129.34126
G0 F3600 X138.035 Y91.648
G1 F1800 X141.35 Y94.964 E129.90392
G0 F3600 X141.35 Y95.53
G1 F1800 X137.469 Y91.648 E130.56264
G0 F3600 X136.903 Y91.648
G1 F1800 X141.35 Y96.095 E131.31732
G0 F3600 X141.35 Y96.661
G1 F1800 X136.337 Y91.648 E132.16805
G0 F3600 X135.772 Y91.648
G1 F1800 X141.35 Y97.227 E133.11475
G0 F3600 X141.35 Y97.792
G1 F1800 X135.206 Y91.648 E134.15743
G0 F3600 X134.64 Y91.648
G1 F1800 X141.35 Y98.358 E135.29615
G0 F3600 X141.35 Y98.924
G1 F1800 X134.075 Y91.648 E136.53084
G0 F3600 X133.509 Y91.648
G1 F1800 X141.35 Y99.489 E137.86151
G0 F3600 X141.35 Y100.055
G1 F1800 X132.943 Y91.648 E139.28822
G0 F3600 X132.378 Y91.648
G1 F1800 X141.35 Y100.621 E140.8109
G0 F3600 X141.35 Y101.186
G1 F1800 X131.812 Y91.648 E142.42956
G0 F3600 X131.246 Y91.648
G1 F1800 X141.35 Y101.752 E144.14426
G0 F3600 X141.35 Y102.318
G1 F1800 X130.681 Y91.648 E145.95494
G0 F3600 X130.115 Y91.648
G1 F1800 X141.35 Y102.884 E147.86166
G0 F3600 X141.35 Y103.449
G1 F1800 X129.549 Y91.648 E149.86436
G0 F3600 X128.984 Y91.648
G1 F1800 X141.35 Y104.015 E151.96303
G0 F3600 X141.35 Y104.581
G1 F1800 X128.418 Y91.648 E154.15774
G0 F3600 X127.852 Y91.648
G1 F1800 X141.35 Y105.146 E156.44843
G0 F3600 X141.35 Y105.712
G1 F1800 X127.286 Y91.648 E158.83517
G0 F3600 X126.721 Y91.648
G1 F1800 X141.35 Y106.278 E161.31788
G0 F3600 X141.35 Y106.843
G1 F1800 X126.155 Y91.648 E163.89656
G0 F3600 X125.589 Y91.648
G1 F1800 X141.35 Y107.409 E166.57129
G0 F3600 X141.35 Y107.975
G1 F1800 X125.024 Y91.648 E169.34198
G0 F3600 X124.458 Y91.648
G1 F1800 X141.35 Y108.54 E172.20865
G0 F3600 X141.35 Y109.106
G1 F1800 X123.892 Y91.648 E175.17137
G0 F3600 X123.327 Y91.648
G1 F1800 X141.35 Y109.672 E178.23006
G0 F3600 X141.35 Y110.237
G1 F1800 X122.761 Y91.648 E181.38472
G0 F3600 X122.195 Y91.648
G1 F1800 X141.35 Y110.803 E184.63543
G0 F3600 X141.35 Y111.369
G1 F1800 X121.63 Y91.648 E187.98211
G0 F3600 X121.064 Y91.648
G1 F1800 X141.35 Y111.935 E191.42484
G0 F3600 X141.35 Y112.5
G1 F1800 X120.498 Y91.648 E194.96355
G0 F3600 X119.933 Y91.648
G1 F1800 X141.35 Y113.066 E198.59822
G0 F3600 X141.35 Y113.632
G1 F1800 X119.367 Y91.648 E202.32894
G0 F3600 X118.801 Y91.648
G1 F1800 X141.35 Y114.197 E206.15563
G0 F3600 X141.35 Y114.763
G1 F1800 X118.236 Y91.648 E210.07829
G0 F3600 X117.67 Y91.648
G1 F1800 X141.35 Y115.329 E214.09701
G0 F3600 X141.35 Y115.894
G1 F1800 X117.104 Y91.648 E218.21169
G0 F3600 X116.538 Y91.648
G1 F1800 X141.35 Y116.46 E222.42243
G0 F3600 X141.35 Y117.026
G1 F1800 X115.973 Y91.648 E226.72913
G0 F3600 X115.407 Y91.648
G1 F1800 X141.35 Y117.591 E231.1318
G0 F3600 X141.35 Y118.157
G1 F1800 X114.841 Y91.648 E235.63053
G0 F3600 X114.276 Y91.648
G1 F1800 X141.35 Y118.723 E240.22522
G0 F3600 X141.35 Y119.288
G1 F1800 X113.71 Y91.648 E244.91589
G0 F3600 X113.144 Y91.648
G1 F1800 X141.35 Y119.854 E249.70261
G0 F3600 X141.35 Y120.42
G1 F1800 X112.579 Y91.648 E254.58529
G0 F3600 X112.013 Y91.648
G1 F1800 X141.35 Y120.985 E259.56394
G0 F3600 X141.35 Y121.551
G1 F1800 X111.447 Y91.648 E264.63865
G0 F3600 X110.881 Y91.648
G1 F1800 X141.35 Y122.117 E269.80941
G0 F3600 X141.35 Y122.683
G1 F1800 X110.315 Y91.648 E275.07623
G0 F3600 X109.75 Y91.648
G1 F1800 X141.35 Y123.248 E280.43892
G0 F3600 X141.35 Y123.814
G1 F1800 X109.184 Y91.648 E285.89768
G0 F3600 X108.618 Y91.648
G1 F1800 X141.35 Y124.38 E291.45248
G0 F3600 X141.35 Y124.945
G1 F1800 X108.052 Y91.648 E297.10325
G0 F3600 X107.487 Y91.648
G1 F1800 X141.35 Y125.511 E302.85
G0 F3600 X141.35 Y126.077
G1 F1800 X106.921 Y91.648 E308.69279
G0 F3600 X106.355 Y91.648
G1 F1800 X141.35 Y126.642 E314.63155
G0 F3600 X141.35 Y127.208
G1 F1800 X105.79 Y91.648 E320.66629
G0 F3600 X105.224 Y91.648
G1 F1800 X141.35 Y127.774 E326.79707
G0 F3600 X141.35 Y128.339
G1 F1800 X104.658 Y91.648 E333.02383
G0 F3600 X104.093 Y91.648
G1 F1800 X141.35 Y128.905 E339.34655
G0 F3600 X141.35 Y129.471
G1 F1800 X103.527 Y91.648 E345.76532
G0 F3600 X102.961 Y91.648
G1 F1800 X141.35 Y130.036 E352.28007
G0 F3600 X141.35 Y130.602
G1 F1800 X102.396 Y91.648 E358.89078
G0 F3600 X101.83 Y91.648
G1 F1800 X141.35 Y131.168 E365.59755
G0 F3600 X140.966 Y131.35
G1 F1800 X101.264 Y91.648 E372.3352
G0 F3600 X100.699 Y91.648
G1 F1800 X140.401 Y131.35 E379.07285
G0 F3600 X139.835 Y131.35
G1 F1800 X100.133 Y91.648 E385.81051
G0 F3600 X99.567 Y91.648
G1 F1800 X139.269 Y131.35 E392.54816
G0 F3600 X138.703 Y131.35
G1 F1800 X99.002 Y91.648 E399.28573
G0 F3600 X98.436 Y91.648
G1 F1800 X138.138 Y131.35 E406.02338
G0 F3600 X137.572 Y131.35
G1 F1800 X97.87 Y91.648 E412.76103
G0 F3600 X97.304 Y91.648
G1 F1800 X137.006 Y131.35 E419.49869
G0 F3600 X136.441 Y131.35
G1 F1800 X96.739 Y91.648 E426.23634
G0 F3600 X96.173 Y91.648
G1 F1800 X135.875 Y131.35 E432.97399
G0 F3600 X135.309 Y131.35
G1 F1800 X95.607 Y91.648 E439.71164
G0 F3600 X95.042 Y91.648
G1 F1800 X134.744 Y131.35 E446.4493
G0 F3600 X134.178 Y131.35
G1 F1800 X94.476 Y91.648 E453.18695
G0 F3600 X93.91 Y91.648
G1 F1800 X133.612 Y131.35 E459.9246
G0 F3600 X133.047 Y131.35
G1 F1800 X93.345 Y91.648 E466.66226
G0 F3600 X92.779 Y91.648
G1 F1800 X132.481 Y131.35 E473.39991
G0 F3600 X131.915 Y131.35
G1 F1800 X92.213 Y91.648 E480.13756
G0 F3600 X91.648 Y91.648
G1 F1800 X131.35 Y131.35 E486.87521
G0 F3600 X130.784 Y131.35
G1 F1800 X91.082 Y91.648 E493.61287
G0 F3600 X90.516 Y91.648
G1 F1800 X130.218 Y131.35 E500.35052
G0 F3600 X129.652 Y131.35
G1 F1800 X89.951 Y91.648 E507.08809
G0 F3600 X89.385 Y91.648
G1 F1800 X129.087 Y131.35 E513.82574
G0 F3600 X128.521 Y131.35
G1 F1800 X88.819 Y91.648 E520.56339
G0 F3600 X88.253 Y91.648
G1 F1800 X127.955 Y131.35 E527.30105
G0 F3600 X127.39 Y131.35
G1 F1800 X87.688 Y91.648 E534.0387
G0 F3600 X87.122 Y91.648
G1 F1800 X126.824 Y131.35 E540.77635
G0 F3600 X126.258 Y131.35
G1 F1800 X86.556 Y91.648 E547.514
G0 F3600 X85.991 Y91.648
G1 F1800 X125.693 Y131.35 E554.25166
G0 F3600 X125.127 Y131.35
G1 F1800 X85.425 Y91.648 E560.98931
G0 F3600 X84.859 Y91.648
G1 F1800 X124.561 Y131.35 E567.72696
G0 F3600 X123.996 Y131.35
G1 F1800 X84.294 Y91.648 E574.46462
G0 F3600 X83.728 Y91.648
G1 F1800 X123.43 Y131.35 E581.20227
G0 F3600 X122.864 Y131.35
G1 F1800 X83.162 Y91.648 E587.93992
G0 F3600 X82.597 Y91.648
G1 F1800 X122.299 Y131.35 E594.67757
G0 F3600 X121.733 Y131.35
G1 F1800 X82.031 Y91.648 E601.41523
G0 F3600 X81.648 Y91.831
G1 F1800 X121.167 Y131.35 E608.12182
G0 F3600 X120.602 Y131.35
G1 F1800 X81.648 Y92.396 E614.73254
G0 F3600 X81.648 Y92.962
G1 F1800 X120.036 Y131.35 E621.2472
G0 F3600 X119.47 Y131.35
G1 F1800 X81.648 Y93.528 E627.6658
G0 F3600 X81.648 Y94.093
G1 F1800 X118.904 Y131.35 E633.98844
G0 F3600 X118.339 Y131.35
G1 F1800 X81.648 Y94.659 E640.21511
G0 F3600 X81.648 Y95.225
G1 F1800 X117.773 Y131.35 E646.34573
G0 F3600 X117.207 Y131.35
G1 F1800 X81.648 Y95.791 E652.38029
G0 F3600 X81.648 Y96.356
G1 F1800 X116.642 Y131.35 E658.31897
G0 F3600 X116.076 Y131.35
G1 F1800 X81.648 Y96.922 E664.16159
G0 F3600 X81.648 Y97.488
G1 F1800 X115.51 Y131.35 E669.90816
G0 F3600 X114.945 Y131.35
G1 F1800 X81.648 Y98.053 E675.55885
G0 F3600 X81.648 Y98.619
G1 F1800 X114.379 Y131.35 E681.11349
G0 F3600 X113.813 Y131.35
G1 F1800 X81.648 Y99.185 E686.57207
G0 F3600 X81.648 Y99.75
G1 F1800 X113.248 Y131.35 E691.93477
G0 F3600 X112.682 Y131.35
G1 F1800 X81.648 Y100.316 E697.20141
G0 F3600 X81.648 Y100.882
G1 F1800 X112.116 Y131.35 E702.372
G0 F3600 X111.551 Y131.35
G1 F1800 X81.648 Y101.447 E707.44671
G0 F3600 X81.648 Y102.013
G1 F1800 X110.985 Y131.35 E712.42536
G0 F3600 X110.419 Y131.35
G1 F1800 X81.648 Y102.579 E717.30796
G0 F3600 X81.648 Y103.144
G1 F1800 X109.853 Y131.35 E722.0946
G0 F3600 X109.288 Y131.35
G1 F1800 X81.648 Y103.71 E726.78526
G0 F3600 X81.648 Y104.276
G1 F1800 X108.722 Y131.35 E731.37987
G0 F3600 X108.156 Y131.35
G1 F1800 X81.648 Y104.842 E735.87843
G0 F3600 X81.648 Y105.407
G1 F1800 X107.591 Y131.35 E740.2811
G0 F3600 X107.025 Y131.35
G1 F1800 X81.648 Y105.973 E744.58772
G0 F3600 X81.648 Y106.539
G1 F1800 X106.459 Y131.35 E748.79829
G0 F3600 X105.894 Y131.35
G1 F1800 X81.648 Y107.104 E752.91297
G0 F3600 X81.648 Y107.67
G1 F1800 X105.328 Y131.35 E756.9316
G0 F3600 X104.762 Y131.35
G1 F1800 X81.648 Y108.236 E760.85417
G0 F3600 X81.648 Y108.801
G1 F1800 X104.197 Y131.35 E764.68087
G0 F3600 X103.631 Y131.35
G1 F1800 X81.648 Y109.367 E768.4115
G0 F3600 X81.648 Y109.933
G1 F1800 X103.065 Y131.35 E772.04609
G0 F3600 X102.5 Y131.35
G1 F1800 X81.648 Y110.498 E775.58479
G0 F3600 X81.648 Y111.064
G1 F1800 X101.934 Y131.35 E779.02744
G0 F3600 X101.368 Y131.35
G1 F1800 X81.648 Y111.63 E782.37403
G0 F3600 X81.648 Y112.195
G1 F1800 X100.803 Y131.35 E785.62475
G0 F3600 X100.237 Y131.35
G1 F1800 X81.648 Y112.761 E788.7794
G0 F3600 X81.648 Y113.327
G1 F1800 X99.671 Y131.35 E791.83801
G0 F3600 X99.105 Y131.35
G1 F1800 X81.648 Y113.892 E794.80064
G0 F3600 X81.648 Y114.458
G1 F1800 X98.54 Y131.35 E797.66731
G0 F3600 X97.974 Y131.35
G1 F1800 X81.648 Y115.024 E800.43793
G0 F3600 X81.648 Y115.59
G1 F1800 X97.408 Y131.35 E803.11249
G0 F3600 X96.843 Y131.35
G1 F1800 X81.648 Y116.155 E805.69116
G0 F3600 X81.648 Y116.721
G1 F1800 X96.277 Y131.35 E808.17379
G0 F3600 X95.711 Y131.35
G1 F1800 X81.648 Y117.287 E810.56036
G0 F3600 X81.648 Y117.852
G1 F1800 X95.146 Y131.35 E812.85104
G0 F3600 X94.58 Y131.35
G1 F1800 X81.648 Y118.418 E815.04568
G0 F3600 X81.648 Y118.984
G1 F1800 X94.014 Y131.35 E817.14426
G0 F3600 X93.449 Y131.35
G1 F1800 X81.648 Y119.549 E819.14695
G0 F3600 X81.648 Y120.115
G1 F1800 X92.883 Y131.35 E821.0536
G0 F3600 X92.317 Y131.35
G1 F1800 X81.648 Y120.681 E822.86419
G0 F3600 X81.648 Y121.246
G1 F1800 X91.752 Y131.35 E824.57889
G0 F3600 X91.186 Y131.35
G1 F1800 X81.648 Y121.812 E826.19754
G0 F3600 X81.648 Y122.378
G1 F1800 X90.62 Y131.35 E827.72014
G0 F3600 X90.054 Y131.35
G1 F1800 X81.648 Y122.943 E829.14677
G0 F3600 X81.648 Y123.509
G1 F1800 X89.489 Y131.35 E830.47743
G0 F3600 X88.923 Y131.35
G1 F1800 X81.648 Y124.075 E831.71204
G0 F3600 X81.648 Y124.641
G1 F1800 X88.357 Y131.35 E832.8506
G0 F3600 X87.792 Y131.35
G1 F1800 X81.648 Y125.206 E833.89327
G0 F3600 X81.648 Y125.772
G1 F1800 X87.226 Y131.35 E834.83989
G0 F3600 X86.66 Y131.35
G1 F1800 X81.648 Y126.338 E835.69045
G0 F3600 X81.648 Y126.903
G1 F1800 X86.095 Y131.35 E836.44513
G0 F3600 X85.529 Y131.35
G1 F1800 X81.648 Y127.469 E837.10376
G0 F3600 X81.648 Y128.035
G1 F1800 X84.963 Y131.35 E837.66633
G0 F3600 X84.398 Y131.35
G1 F1800 X81.648 Y128.6 E838.13302
G0 F3600 X81.648 Y129.166
G1 F1800 X83.832 Y131.35 E838.50366
